CineCam/app/src/main/assets/luts/cinecam_flat_log.cube
TITLE "CineCam Flat Log"
LUT_3D_SIZE 17
DOMAIN_MIN 0.0 0.0 0.0
DOMAIN_MAX 1.0 1.0 1.0
0.122631 0.120226 0.115417
0.172607 0.120226 0.115417
0.221337 0.120226 0.115417
0.269143 0.120226 0.115417
0.316217 0.120226 0.115417
0.362688 0.120226 0.115417
0.408645 0.120226 0.115417
0.454155 0.120226 0.115417
0.499272 0.120226 0.115417
0.544037 0.120226 0.115417
0.588483 0.120226 0.115417
0.632639 0.120226 0.115417
0.676528 0.120226 0.115417
0.720171 0.120226 0.115417
0.763585 0.120226 0.115417
0.806785 0.120226 0.115417
0.849785 0.120226 0.115417
0.122631 0.169223 0.115417
0.172607 0.169223 0.115417
0.221337 0.169223 0.115417
0.269143 0.169223 0.115417
0.316217 0.169223 0.115417
0.362688 0.169223 0.115417
0.408645 0.169223 0.115417
0.454155 0.169223 0.115417
0.499272 0.169223 0.115417
0.544037 0.169223 0.115417
0.588483 0.169223 0.115417
0.632639 0.169223 0.115417
0.676528 0.169223 0.115417
0.720171 0.169223 0.115417
0.763585 0.169223 0.115417
0.806785 0.169223 0.115417
0.849785 0.169223 0.115417
0.122631 0.216997 0.115417
0.172607 0.216997 0.115417
0.221337 0.216997 0.115417
0.269143 0.216997 0.115417
0.316217 0.216997 0.115417
0.362688 0.216997 0.115417
0.408645 0.216997 0.115417
0.454155 0.216997 0.115417
0.499272 0.216997 0.115417
0.544037 0.216997 0.115417
0.588483 0.216997 0.115417
0.632639 0.216997 0.115417
0.676528 0.216997 0.115417
0.720171 0.216997 0.115417
0.763585 0.216997 0.115417
0.806785 0.216997 0.115417
0.849785 0.216997 0.115417
0.122631 0.263865 0.115417
0.172607 0.263865 0.115417
0.221337 0.263865 0.115417
0.269143 0.263865 0.115417
0.316217 0.263865 0.115417
0.362688 0.263865 0.115417
0.408645 0.263865 0.115417
0.454155 0.263865 0.115417
0.499272 0.263865 0.115417
0.544037 0.263865 0.115417
0.588483 0.263865 0.115417
0.632639 0.263865 0.115417
0.676528 0.263865 0.115417
0.720171 0.263865 0.115417
0.763585 0.263865 0.115417
0.806785 0.263865 0.115417
0.849785 0.263865 0.115417
0.122631 0.310017 0.115417
0.172607 0.310017 0.115417
0.221337 0.310017 0.115417
0.269143 0.310017 0.115417
0.316217 0.310017 0.115417
0.362688 0.310017 0.115417
0.408645 0.310017 0.115417
0.454155 0.310017 0.115417
0.499272 0.310017 0.115417
0.544037 0.310017 0.115417
0.588483 0.310017 0.115417
0.632639 0.310017 0.115417
0.676528 0.310017 0.115417
0.720171 0.310017 0.115417
0.763585 0.310017 0.115417
0.806785 0.310017 0.115417
0.849785 0.310017 0.115417
0.122631 0.355576 0.115417
0.172607 0.355576 0.115417
0.221337 0.355576 0.115417
0.269143 0.355576 0.115417
0.316217 0.355576 0.115417
0.362688 0.355576 0.115417
0.408645 0.355576 0.115417
0.454155 0.355576 0.115417
0.499272 0.355576 0.115417
0.544037 0.355576 0.115417
0.588483 0.355576 0.115417
0.632639 0.355576 0.115417
0.676528 0.355576 0.115417
0.720171 0.355576 0.115417
0.763585 0.355576 0.115417
0.806785 0.355576 0.115417
0.849785 0.355576 0.115417
0.122631 0.400632 0.115417
0.172607 0.400632 0.115417
0.221337 0.400632 0.115417
0.269143 0.400632 0.115417
0.316217 0.400632 0.115417
0.362688 0.400632 0.115417
0.408645 0.400632 0.115417
0.454155 0.400632 0.115417
0.499272 0.400632 0.115417
0.544037 0.400632 0.115417
0.588483 0.400632 0.115417
0.632639 0.400632 0.115417
0.676528 0.400632 0.115417
0.720171 0.400632 0.115417
0.763585 0.400632 0.115417
0.806785 0.400632 0.115417
0.849785 0.400632 0.115417
0.122631 0.445250 0.115417
0.172607 0.445250 0.115417
0.221337 0.445250 0.115417
0.269143 0.445250 0.115417
0.316217 0.445250 0.115417
0.362688 0.445250 0.115417
0.408645 0.445250 0.115417
0.454155 0.445250 0.115417
0.499272 0.445250 0.115417
0.544037 0.445250 0.115417
0.588483 0.445250 0.115417
0.632639 0.445250 0.115417
0.676528 0.445250 0.115417
0.720171 0.445250 0.115417
0.763585 0.445250 0.115417
0.806785 0.445250 0.115417
0.849785 0.445250 0.115417
0.122631 0.489483 0.115417
0.172607 0.489483 0.115417
0.221337 0.489483 0.115417
0.269143 0.489483 0.115417
0.316217 0.489483 0.115417
0.362688 0.489483 0.115417
0.408645 0.489483 0.115417
0.454155 0.489483 0.115417
0.499272 0.489483 0.115417
0.544037 0.489483 0.115417
0.588483 0.489483 0.115417
0.632639 0.489483 0.115417
0.676528 0.489483 0.115417
0.720171 0.489483 0.115417
0.763585 0.489483 0.115417
0.806785 0.489483 0.115417
0.849785 0.489483 0.115417
0.122631 0.533369 0.115417
0.172607 0.533369 0.115417
0.221337 0.533369 0.115417
0.269143 0.533369 0.115417
0.316217 0.533369 0.115417
0.362688 0.533369 0.115417
0.408645 0.533369 0.115417
0.454155 0.533369 0.115417
0.499272 0.533369 0.115417
0.544037 0.533369 0.115417
0.588483 0.533369 0.115417
0.632639 0.533369 0.115417
0.676528 0.533369 0.115417
0.720171 0.533369 0.115417
0.763585 0.533369 0.115417
0.806785 0.533369 0.115417
0.849785 0.533369 0.115417
0.122631 0.576944 0.115417
0.172607 0.576944 0.115417
0.221337 0.576944 0.115417
0.269143 0.576944 0.115417
0.316217 0.576944 0.115417
0.362688 0.576944 0.115417
0.408645 0.576944 0.115417
0.454155 0.576944 0.115417
0.499272 0.576944 0.115417
0.544037 0.576944 0.115417
0.588483 0.576944 0.115417
0.632639 0.576944 0.115417
0.676528 0.576944 0.115417
0.720171 0.576944 0.115417
0.763585 0.576944 0.115417
0.806785 0.576944 0.115417
0.849785 0.576944 0.115417
0.122631 0.620234 0.115417
0.172607 0.620234 0.115417
0.221337 0.620234 0.115417
0.269143 0.620234 0.115417
0.316217 0.620234 0.115417
0.362688 0.620234 0.115417
0.408645 0.620234 0.115417
0.454155 0.620234 0.115417
0.499272 0.620234 0.115417
0.544037 0.620234 0.115417
0.588483 0.620234 0.115417
0.632639 0.620234 0.115417
0.676528 0.620234 0.115417
0.720171 0.620234 0.115417
0.763585 0.620234 0.115417
0.806785 0.620234 0.115417
0.849785 0.620234 0.115417
0.122631 0.663263 0.115417
0.172607 0.663263 0.115417
0.221337 0.663263 0.115417
0.269143 0.663263 0.115417
0.316217 0.663263 0.115417
0.362688 0.663263 0.115417
0.408645 0.663263 0.115417
0.454155 0.663263 0.115417
0.499272 0.663263 0.115417
0.544037 0.663263 0.115417
0.588483 0.663263 0.115417
0.632639 0.663263 0.115417
0.676528 0.663263 0.115417
0.720171 0.663263 0.115417
0.763585 0.663263 0.115417
0.806785 0.663263 0.115417
0.849785 0.663263 0.115417
0.122631 0.706050 0.115417
0.172607 0.706050 0.115417
0.221337 0.706050 0.115417
0.269143 0.706050 0.115417
0.316217 0.706050 0.115417
0.362688 0.706050 0.115417
0.408645 0.706050 0.115417
0.454155 0.706050 0.115417
0.499272 0.706050 0.115417
0.544037 0.706050 0.115417
0.588483 0.706050 0.115417
0.632639 0.706050 0.115417
0.676528 0.706050 0.115417
0.720171 0.706050 0.115417
0.763585 0.706050 0.115417
0.806785 0.706050 0.115417
0.849785 0.706050 0.115417
0.122631 0.748612 0.115417
0.172607 0.748612 0.115417
0.221337 0.748612 0.115417
0.269143 0.748612 0.115417
0.316217 0.748612 0.115417
0.362688 0.748612 0.115417
0.408645 0.748612 0.115417
0.454155 0.748612 0.115417
0.499272 0.748612 0.115417
0.544037 0.748612 0.115417
0.588483 0.748612 0.115417
0.632639 0.748612 0.115417
0.676528 0.748612 0.115417
0.720171 0.748612 0.115417
0.763585 0.748612 0.115417
0.806785 0.748612 0.115417
0.849785 0.748612 0.115417
0.122631 0.790966 0.115417
0.172607 0.790966 0.115417
0.221337 0.790966 0.115417
0.269143 0.790966 0.115417
0.316217 0.790966 0.115417
0.362688 0.790966 0.115417
0.408645 0.790966 0.115417
0.454155 0.790966 0.115417
0.499272 0.790966 0.115417
0.544037 0.790966 0.115417
0.588483 0.790966 0.115417
0.632639 0.790966 0.115417
0.676528 0.790966 0.115417
0.720171 0.790966 0.115417
0.763585 0.790966 0.115417
0.806785 0.790966 0.115417
0.849785 0.790966 0.115417
0.122631 0.833122 0.115417
0.172607 0.833122 0.115417
0.221337 0.833122 0.115417
0.269143 0.833122 0.115417
0.316217 0.833122 0.115417
0.362688 0.833122 0.115417
0.408645 0.833122 0.115417
0.454155 0.833122 0.115417
0.499272 0.833122 0.115417
0.544037 0.833122 0.115417
0.588483 0.833122 0.115417
0.632639 0.833122 0.115417
0.676528 0.833122 0.115417
0.720171 0.833122 0.115417
0.763585 0.833122 0.115417
0.806785 0.833122 0.115417
0.849785 0.833122 0.115417
0.122631 0.120226 0.162454
0.172607 0.120226 0.162454
0.221337 0.120226 0.162454
0.269143 0.120226 0.162454
0.316217 0.120226 0.162454
0.362688 0.120226 0.162454
0.408645 0.120226 0.162454
0.454155 0.120226 0.162454
0.499272 0.120226 0.162454
0.544037 0.120226 0.162454
0.588483 0.120226 0.162454
0.632639 0.120226 0.162454
0.676528 0.120226 0.162454
0.720171 0.120226 0.162454
0.763585 0.120226 0.162454
0.806785 0.120226 0.162454
0.849785 0.120226 0.162454
0.122631 0.169223 0.162454
0.172607 0.169223 0.162454
0.221337 0.169223 0.162454
0.269143 0.169223 0.162454
0.316217 0.169223 0.162454
0.362688 0.169223 0.162454
0.408645 0.169223 0.162454
0.454155 0.169223 0.162454
0.499272 0.169223 0.162454
0.544037 0.169223 0.162454
0.588483 0.169223 0.162454
0.632639 0.169223 0.162454
0.676528 0.169223 0.162454
0.720171 0.169223 0.162454
0.763585 0.169223 0.162454
0.806785 0.169223 0.162454
0.849785 0.169223 0.162454
0.122631 0.216997 0.162454
0.172607 0.216997 0.162454
0.221337 0.216997 0.162454
0.269143 0.216997 0.162454
0.316217 0.216997 0.162454
0.362688 0.216997 0.162454
0.408645 0.216997 0.162454
0.454155 0.216997 0.162454
0.499272 0.216997 0.162454
0.544037 0.216997 0.162454
0.588483 0.216997 0.162454
0.632639 0.216997 0.162454
0.676528 0.216997 0.162454
0.720171 0.216997 0.162454
0.763585 0.216997 0.162454
0.806785 0.216997 0.162454
0.849785 0.216997 0.162454
0.122631 0.263865 0.162454
0.172607 0.263865 0.162454
0.221337 0.263865 0.162454
0.269143 0.263865 0.162454
0.316217 0.263865 0.162454
0.362688 0.263865 0.162454
0.408645 0.263865 0.162454
0.454155 0.263865 0.162454
0.499272 0.263865 0.162454
0.544037 0.263865 0.162454
0.588483 0.263865 0.162454
0.632639 0.263865 0.162454
0.676528 0.263865 0.162454
0.720171 0.263865 0.162454
0.763585 0.263865 0.162454
0.806785 0.263865 0.162454
0.849785 0.263865 0.162454
0.122631 0.310017 0.162454
0.172607 0.310017 0.162454
0.221337 0.310017 0.162454
0.269143 0.310017 0.162454
0.316217 0.310017 0.162454
0.362688 0.310017 0.162454
0.408645 0.310017 0.162454
0.454155 0.310017 0.162454
0.499272 0.310017 0.162454
0.544037 0.310017 0.162454
0.588483 0.310017 0.162454
0.632639 0.310017 0.162454
0.676528 0.310017 0.162454
0.720171 0.310017 0.162454
0.763585 0.310017 0.162454
0.806785 0.310017 0.162454
0.849785 0.310017 0.162454
0.122631 0.355576 0.162454
0.172607 0.355576 0.162454
0.221337 0.355576 0.162454
0.269143 0.355576 0.162454
0.316217 0.355576 0.162454
0.362688 0.355576 0.162454
0.408645 0.355576 0.162454
0.454155 0.355576 0.162454
0.499272 0.355576 0.162454
0.544037 0.355576 0.162454
0.588483 0.355576 0.162454
0.632639 0.355576 0.162454
0.676528 0.355576 0.162454
0.720171 0.355576 0.162454
0.763585 0.355576 0.162454
0.806785 0.355576 0.162454
0.849785 0.355576 0.162454
0.122631 0.400632 0.162454
0.172607 0.400632 0.162454
0.221337 0.400632 0.162454
0.269143 0.400632 0.162454
0.316217 0.400632 0.162454
0.362688 0.400632 0.162454
0.408645 0.400632 0.162454
0.454155 0.400632 0.162454
0.499272 0.400632 0.162454
0.544037 0.400632 0.162454
0.588483 0.400632 0.162454
0.632639 0.400632 0.162454
0.676528 0.400632 0.162454
0.720171 0.400632 0.162454
0.763585 0.400632 0.162454
0.806785 0.400632 0.162454
0.849785 0.400632 0.162454
0.122631 0.445250 0.162454
0.172607 0.445250 0.162454
0.221337 0.445250 0.162454
0.269143 0.445250 0.162454
0.316217 0.445250 0.162454
0.362688 0.445250 0.162454
0.408645 0.445250 0.162454
0.454155 0.445250 0.162454
0.499272 0.445250 0.162454
0.544037 0.445250 0.162454
0.588483 0.445250 0.162454
0.632639 0.445250 0.162454
0.676528 0.445250 0.162454
0.720171 0.445250 0.162454
0.763585 0.445250 0.162454
0.806785 0.445250 0.162454
0.849785 0.445250 0.162454
0.122631 0.489483 0.162454
0.172607 0.489483 0.162454
0.221337 0.489483 0.162454
0.269143 0.489483 0.162454
0.316217 0.489483 0.162454
0.362688 0.489483 0.162454
0.408645 0.489483 0.162454
0.454155 0.489483 0.162454
0.499272 0.489483 0.162454
0.544037 0.489483 0.162454
0.588483 0.489483 0.162454
0.632639 0.489483 0.162454
0.676528 0.489483 0.162454
0.720171 0.489483 0.162454
0.763585 0.489483 0.162454
0.806785 0.489483 0.162454
0.849785 0.489483 0.162454
0.122631 0.533369 0.162454
0.172607 0.533369 0.162454
0.221337 0.533369 0.162454
0.269143 0.533369 0.162454
0.316217 0.533369 0.162454
0.362688 0.533369 0.162454
0.408645 0.533369 0.162454
0.454155 0.533369 0.162454
0.499272 0.533369 0.162454
0.544037 0.533369 0.162454
0.588483 0.533369 0.162454
0.632639 0.533369 0.162454
0.676528 0.533369 0.162454
0.720171 0.533369 0.162454
0.763585 0.533369 0.162454
0.806785 0.533369 0.162454
0.849785 0.533369 0.162454
0.122631 0.576944 0.162454
0.172607 0.576944 0.162454
0.221337 0.576944 0.162454
0.269143 0.576944 0.162454
0.316217 0.576944 0.162454
0.362688 0.576944 0.162454
0.408645 0.576944 0.162454
0.454155 0.576944 0.162454
0.499272 0.576944 0.162454
0.544037 0.576944 0.162454
0.588483 0.576944 0.162454
0.632639 0.576944 0.162454
0.676528 0.576944 0.162454
0.720171 0.576944 0.162454
0.763585 0.576944 0.162454
0.806785 0.576944 0.162454
0.849785 0.576944 0.162454
0.122631 0.620234 0.162454
0.172607 0.620234 0.162454
0.221337 0.620234 0.162454
0.269143 0.620234 0.162454
0.316217 0.620234 0.162454
0.362688 0.620234 0.162454
0.408645 0.620234 0.162454
0.454155 0.620234 0.162454
0.499272 0.620234 0.162454
0.544037 0.620234 0.162454
0.588483 0.620234 0.162454
0.632639 0.620234 0.162454
0.676528 0.620234 0.162454
0.720171 0.620234 0.162454
0.763585 0.620234 0.162454
0.806785 0.620234 0.162454
0.849785 0.620234 0.162454
0.122631 0.663263 0.162454
0.172607 0.663263 0.162454
0.221337 0.663263 0.162454
0.269143 0.663263 0.162454
0.316217 0.663263 0.162454
0.362688 0.663263 0.162454
0.408645 0.663263 0.162454
0.454155 0.663263 0.162454
0.499272 0.663263 0.162454
0.544037 0.663263 0.162454
0.588483 0.663263 0.162454
0.632639 0.663263 0.162454
0.676528 0.663263 0.162454
0.720171 0.663263 0.162454
0.763585 0.663263 0.162454
0.806785 0.663263 0.162454
0.849785 0.663263 0.162454
0.122631 0.706050 0.162454
0.172607 0.706050 0.162454
0.221337 0.706050 0.162454
0.269143 0.706050 0.162454
0.316217 0.706050 0.162454
0.362688 0.706050 0.162454
0.408645 0.706050 0.162454
0.454155 0.706050 0.162454
0.499272 0.706050 0.162454
0.544037 0.706050 0.162454
0.588483 0.706050 0.162454
0.632639 0.706050 0.162454
0.676528 0.706050 0.162454
0.720171 0.706050 0.162454
0.763585 0.706050 0.162454
0.806785 0.706050 0.162454
0.849785 0.706050 0.162454
0.122631 0.748612 0.162454
0.172607 0.748612 0.162454
0.221337 0.748612 0.162454
0.269143 0.748612 0.162454
0.316217 0.748612 0.162454
0.362688 0.748612 0.162454
0.408645 0.748612 0.162454
0.454155 0.748612 0.162454
0.499272 0.748612 0.162454
0.544037 0.748612 0.162454
0.588483 0.748612 0.162454
0.632639 0.748612 0.162454
0.676528 0.748612 0.162454
0.720171 0.748612 0.162454
0.763585 0.748612 0.162454
0.806785 0.748612 0.162454
0.849785 0.748612 0.162454
0.122631 0.790966 0.162454
0.172607 0.790966 0.162454
0.221337 0.790966 0.162454
0.269143 0.790966 0.162454
0.316217 0.790966 0.162454
0.362688 0.790966 0.162454
0.408645 0.790966 0.162454
0.454155 0.790966 0.162454
0.499272 0.790966 0.162454
0.544037 0.790966 0.162454
0.588483 0.790966 0.162454
0.632639 0.790966 0.162454
0.676528 0.790966 0.162454
0.720171 0.790966 0.162454
0.763585 0.790966 0.162454
0.806785 0.790966 0.162454
0.849785 0.790966 0.162454
0.122631 0.833122 0.162454
0.172607 0.833122 0.162454
0.221337 0.833122 0.162454
0.269143 0.833122 0.162454
0.316217 0.833122 0.162454
0.362688 0.833122 0.162454
0.408645 0.833122 0.162454
0.454155 0.833122 0.162454
0.499272 0.833122 0.162454
0.544037 0.833122 0.162454
0.588483 0.833122 0.162454
0.632639 0.833122 0.162454
0.676528 0.833122 0.162454
0.720171 0.833122 0.162454
0.763585 0.833122 0.162454
0.806785 0.833122 0.162454
0.849785 0.833122 0.162454
0.122631 0.120226 0.208317
0.172607 0.120226 0.208317
0.221337 0.120226 0.208317
0.269143 0.120226 0.208317
0.316217 0.120226 0.208317
0.362688 0.120226 0.208317
0.408645 0.120226 0.208317
0.454155 0.120226 0.208317
0.499272 0.120226 0.208317
0.544037 0.120226 0.208317
0.588483 0.120226 0.208317
0.632639 0.120226 0.208317
0.676528 0.120226 0.208317
0.720171 0.120226 0.208317
0.763585 0.120226 0.208317
0.806785 0.120226 0.208317
0.849785 0.120226 0.208317
0.122631 0.169223 0.208317
0.172607 0.169223 0.208317
0.221337 0.169223 0.208317
0.269143 0.169223 0.208317
0.316217 0.169223 0.208317
0.362688 0.169223 0.208317
0.408645 0.169223 0.208317
0.454155 0.169223 0.208317
0.499272 0.169223 0.208317
0.544037 0.169223 0.208317
0.588483 0.169223 0.208317
0.632639 0.169223 0.208317
0.676528 0.169223 0.208317
0.720171 0.169223 0.208317
0.763585 0.169223 0.208317
0.806785 0.169223 0.208317
0.849785 0.169223 0.208317
0.122631 0.216997 0.208317
0.172607 0.216997 0.208317
0.221337 0.216997 0.208317
0.269143 0.216997 0.208317
0.316217 0.216997 0.208317
0.362688 0.216997 0.208317
0.408645 0.216997 0.208317
0.454155 0.216997 0.208317
0.499272 0.216997 0.208317
0.544037 0.216997 0.208317
0.588483 0.216997 0.208317
0.632639 0.216997 0.208317
0.676528 0.216997 0.208317
0.720171 0.216997 0.208317
0.763585 0.216997 0.208317
0.806785 0.216997 0.208317
0.849785 0.216997 0.208317
0.122631 0.263865 0.208317
0.172607 0.263865 0.208317
0.221337 0.263865 0.208317
0.269143 0.263865 0.208317
0.316217 0.263865 0.208317
0.362688 0.263865 0.208317
0.408645 0.263865 0.208317
0.454155 0.263865 0.208317
0.499272 0.263865 0.208317
0.544037 0.263865 0.208317
0.588483 0.263865 0.208317
0.632639 0.263865 0.208317
0.676528 0.263865 0.208317
0.720171 0.263865 0.208317
0.763585 0.263865 0.208317
0.806785 0.263865 0.208317
0.849785 0.263865 0.208317
0.122631 0.310017 0.208317
0.172607 0.310017 0.208317
0.221337 0.310017 0.208317
0.269143 0.310017 0.208317
0.316217 0.310017 0.208317
0.362688 0.310017 0.208317
0.408645 0.310017 0.208317
0.454155 0.310017 0.208317
0.499272 0.310017 0.208317
0.544037 0.310017 0.208317
0.588483 0.310017 0.208317
0.632639 0.310017 0.208317
0.676528 0.310017 0.208317
0.720171 0.310017 0.208317
0.763585 0.310017 0.208317
0.806785 0.310017 0.208317
0.849785 0.310017 0.208317
0.122631 0.355576 0.208317
0.172607 0.355576 0.208317
0.221337 0.355576 0.208317
0.269143 0.355576 0.208317
0.316217 0.355576 0.208317
0.362688 0.355576 0.208317
0.408645 0.355576 0.208317
0.454155 0.355576 0.208317
0.499272 0.355576 0.208317
0.544037 0.355576 0.208317
0.588483 0.355576 0.208317
0.632639 0.355576 0.208317
0.676528 0.355576 0.208317
0.720171 0.355576 0.208317
0.763585 0.355576 0.208317
0.806785 0.355576 0.208317
0.849785 0.355576 0.208317
0.122631 0.400632 0.208317
0.172607 0.400632 0.208317
0.221337 0.400632 0.208317
0.269143 0.400632 0.208317
0.316217 0.400632 0.208317
0.362688 0.400632 0.208317
0.408645 0.400632 0.208317
0.454155 0.400632 0.208317
0.499272 0.400632 0.208317
0.544037 0.400632 0.208317
0.588483 0.400632 0.208317
0.632639 0.400632 0.208317
0.676528 0.400632 0.208317
0.720171 0.400632 0.208317
0.763585 0.400632 0.208317
0.806785 0.400632 0.208317
0.849785 0.400632 0.208317
0.122631 0.445250 0.208317
0.172607 0.445250 0.208317
0.221337 0.445250 0.208317
0.269143 0.445250 0.208317
0.316217 0.445250 0.208317
0.362688 0.445250 0.208317
0.408645 0.445250 0.208317
0.454155 0.445250 0.208317
0.499272 0.445250 0.208317
0.544037 0.445250 0.208317
0.588483 0.445250 0.208317
0.632639 0.445250 0.208317
0.676528 0.445250 0.208317
0.720171 0.445250 0.208317
0.763585 0.445250 0.208317
0.806785 0.445250 0.208317
0.849785 0.445250 0.208317
0.122631 0.489483 0.208317
0.172607 0.489483 0.208317
0.221337 0.489483 0.208317
0.269143 0.489483 0.208317
0.316217 0.489483 0.208317
0.362688 0.489483 0.208317
0.408645 0.489483 0.208317
0.454155 0.489483 0.208317
0.499272 0.489483 0.208317
0.544037 0.489483 0.208317
0.588483 0.489483 0.208317
0.632639 0.489483 0.208317
0.676528 0.489483 0.208317
0.720171 0.489483 0.208317
0.763585 0.489483 0.208317
0.806785 0.489483 0.208317
0.849785 0.489483 0.208317
0.122631 0.533369 0.208317
0.172607 0.533369 0.208317
0.221337 0.533369 0.208317
0.269143 0.533369 0.208317
0.316217 0.533369 0.208317
0.362688 0.533369 0.208317
0.408645 0.533369 0.208317
0.454155 0.533369 0.208317
0.499272 0.533369 0.208317
0.544037 0.533369 0.208317
0.588483 0.533369 0.208317
0.632639 0.533369 0.208317
0.676528 0.533369 0.208317
0.720171 0.533369 0.208317
0.763585 0.533369 0.208317
0.806785 0.533369 0.208317
0.849785 0.533369 0.208317
0.122631 0.576944 0.208317
0.172607 0.576944 0.208317
0.221337 0.576944 0.208317
0.269143 0.576944 0.208317
0.316217 0.576944 0.208317
0.362688 0.576944 0.208317
0.408645 0.576944 0.208317
0.454155 0.576944 0.208317
0.499272 0.576944 0.208317
0.544037 0.576944 0.208317
0.588483 0.576944 0.208317
0.632639 0.576944 0.208317
0.676528 0.576944 0.208317
0.720171 0.576944 0.208317
0.763585 0.576944 0.208317
0.806785 0.576944 0.208317
0.849785 0.576944 0.208317
0.122631 0.620234 0.208317
0.172607 0.620234 0.208317
0.221337 0.620234 0.208317
0.269143 0.620234 0.208317
0.316217 0.620234 0.208317
0.362688 0.620234 0.208317
0.408645 0.620234 0.208317
0.454155 0.620234 0.208317
0.499272 0.620234 0.208317
0.544037 0.620234 0.208317
0.588483 0.620234 0.208317
0.632639 0.620234 0.208317
0.676528 0.620234 0.208317
0.720171 0.620234 0.208317
0.763585 0.620234 0.208317
0.806785 0.620234 0.208317
0.849785 0.620234 0.208317
0.122631 0.663263 0.208317
0.172607 0.663263 0.208317
0.221337 0.663263 0.208317
0.269143 0.663263 0.208317
0.316217 0.663263 0.208317
0.362688 0.663263 0.208317
0.408645 0.663263 0.208317
0.454155 0.663263 0.208317
0.499272 0.663263 0.208317
0.544037 0.663263 0.208317
0.588483 0.663263 0.208317
0.632639 0.663263 0.208317
0.676528 0.663263 0.208317
0.720171 0.663263 0.208317
0.763585 0.663263 0.208317
0.806785 0.663263 0.208317
0.849785 0.663263 0.208317
0.122631 0.706050 0.208317
0.172607 0.706050 0.208317
0.221337 0.706050 0.208317
0.269143 0.706050 0.208317
0.316217 0.706050 0.208317
0.362688 0.706050 0.208317
0.408645 0.706050 0.208317
0.454155 0.706050 0.208317
0.499272 0.706050 0.208317
0.544037 0.706050 0.208317
0.588483 0.706050 0.208317
0.632639 0.706050 0.208317
0.676528 0.706050 0.208317
0.720171 0.706050 0.208317
0.763585 0.706050 0.208317
0.806785 0.706050 0.208317
0.849785 0.706050 0.208317
0.122631 0.748612 0.208317
0.172607 0.748612 0.208317
0.221337 0.748612 0.208317
0.269143 0.748612 0.208317
0.316217 0.748612 0.208317
0.362688 0.748612 0.208317
0.408645 0.748612 0.208317
0.454155 0.748612 0.208317
0.499272 0.748612 0.208317
0.544037 0.748612 0.208317
0.588483 0.748612 0.208317
0.632639 0.748612 0.208317
0.676528 0.748612 0.208317
0.720171 0.748612 0.208317
0.763585 0.748612 0.208317
0.806785 0.748612 0.208317
0.849785 0.748612 0.208317
0.122631 0.790966 0.208317
0.172607 0.790966 0.208317
0.221337 0.790966 0.208317
0.269143 0.790966 0.208317
0.316217 0.790966 0.208317
0.362688 0.790966 0.208317
0.408645 0.790966 0.208317
0.454155 0.790966 0.208317
0.499272 0.790966 0.208317
0.544037 0.790966 0.208317
0.588483 0.790966 0.208317
0.632639 0.790966 0.208317
0.676528 0.790966 0.208317
0.720171 0.790966 0.208317
0.763585 0.790966 0.208317
0.806785 0.790966 0.208317
0.849785 0.790966 0.208317
0.122631 0.833122 0.208317
0.172607 0.833122 0.208317
0.221337 0.833122 0.208317
0.269143 0.833122 0.208317
0.316217 0.833122 0.208317
0.362688 0.833122 0.208317
0.408645 0.833122 0.208317
0.454155 0.833122 0.208317
0.499272 0.833122 0.208317
0.544037 0.833122 0.208317
0.588483 0.833122 0.208317
0.632639 0.833122 0.208317
0.676528 0.833122 0.208317
0.720171 0.833122 0.208317
0.763585 0.833122 0.208317
0.806785 0.833122 0.208317
0.849785 0.833122 0.208317
0.122631 0.120226 0.253311
0.172607 0.120226 0.253311
0.221337 0.120226 0.253311
0.269143 0.120226 0.253311
0.316217 0.120226 0.253311
0.362688 0.120226 0.253311
0.408645 0.120226 0.253311
0.454155 0.120226 0.253311
0.499272 0.120226 0.253311
0.544037 0.120226 0.253311
0.588483 0.120226 0.253311
0.632639 0.120226 0.253311
0.676528 0.120226 0.253311
0.720171 0.120226 0.253311
0.763585 0.120226 0.253311
0.806785 0.120226 0.253311
0.849785 0.120226 0.253311
0.122631 0.169223 0.253311
