CineCam/app/src/main/assets/luts/cinecam_flat_log.cube
TITLE "CineCam Flat Log"
LUT_3D_SIZE 9
DOMAIN_MIN 0.0 0.0 0.0
DOMAIN_MAX 1.0 1.0 1.0
0.122631 0.120226 0.115417
0.221337 0.120226 0.115417
0.316217 0.120226 0.115417
0.408645 0.120226 0.115417
0.499272 0.120226 0.115417
0.588483 0.120226 0.115417
0.676528 0.120226 0.115417
0.763585 0.120226 0.115417
0.849785 0.120226 0.115417
0.122631 0.216997 0.115417
0.221337 0.216997 0.115417
0.316217 0.216997 0.115417
0.408645 0.216997 0.115417
0.499272 0.216997 0.115417
0.588483 0.216997 0.115417
0.676528 0.216997 0.115417
0.763585 0.216997 0.115417
0.849785 0.216997 0.115417
0.122631 0.310017 0.115417
0.221337 0.310017 0.115417
0.316217 0.310017 0.115417
0.408645 0.310017 0.115417
0.499272 0.310017 0.115417
0.588483 0.310017 0.115417
0.676528 0.310017 0.115417
0.763585 0.310017 0.115417
0.849785 0.310017 0.115417
0.122631 0.400632 0.115417
0.221337 0.400632 0.115417
0.316217 0.400632 0.115417
0.408645 0.400632 0.115417
0.499272 0.400632 0.115417
0.588483 0.400632 0.115417
0.676528 0.400632 0.115417
0.763585 0.400632 0.115417
0.849785 0.400632 0.115417
0.122631 0.489483 0.115417
0.221337 0.489483 0.115417
0.316217 0.489483 0.115417
0.408645 0.489483 0.115417
0.499272 0.489483 0.115417
0.588483 0.489483 0.115417
0.676528 0.489483 0.115417
0.763585 0.489483 0.115417
0.849785 0.489483 0.115417
0.122631 0.576944 0.115417
0.221337 0.576944 0.115417
0.316217 0.576944 0.115417
0.408645 0.576944 0.115417
0.499272 0.576944 0.115417
0.588483 0.576944 0.115417
0.676528 0.576944 0.115417
0.763585 0.576944 0.115417
0.849785 0.576944 0.115417
0.122631 0.663263 0.115417
0.221337 0.663263 0.115417
0.316217 0.663263 0.115417
0.408645 0.663263 0.115417
0.499272 0.663263 0.115417
0.588483 0.663263 0.115417
0.676528 0.663263 0.115417
0.763585 0.663263 0.115417
0.849785 0.663263 0.115417
0.122631 0.748612 0.115417
0.221337 0.748612 0.115417
0.316217 0.748612 0.115417
0.408645 0.748612 0.115417
0.499272 0.748612 0.115417
0.588483 0.748612 0.115417
0.676528 0.748612 0.115417
0.763585 0.748612 0.115417
0.849785 0.748612 0.115417
0.122631 0.833122 0.115417
0.221337 0.833122 0.115417
0.316217 0.833122 0.115417
0.408645 0.833122 0.115417
0.499272 0.833122 0.115417
0.588483 0.833122 0.115417
0.676528 0.833122 0.115417
0.763585 0.833122 0.115417
0.849785 0.833122 0.115417
0.122631 0.120226 0.208317
0.221337 0.120226 0.208317
0.316217 0.120226 0.208317
0.408645 0.120226 0.208317
0.499272 0.120226 0.208317
0.588483 0.120226 0.208317
0.676528 0.120226 0.208317
0.763585 0.120226 0.208317
0.849785 0.120226 0.208317
0.122631 0.216997 0.208317
0.221337 0.216997 0.208317
0.316217 0.216997 0.208317
0.408645 0.216997 0.208317
0.499272 0.216997 0.208317
0.588483 0.216997 0.208317
0.676528 0.216997 0.208317
0.763585 0.216997 0.208317
0.849785 0.216997 0.208317
0.122631 0.310017 0.208317
0.221337 0.310017 0.208317
0.316217 0.310017 0.208317
0.408645 0.310017 0.208317
0.499272 0.310017 0.208317
0.588483 0.310017 0.208317
0.676528 0.310017 0.208317
0.763585 0.310017 0.208317
0.849785 0.310017 0.208317
0.122631 0.400632 0.208317
0.221337 0.400632 0.208317
0.316217 0.400632 0.208317
0.408645 0.400632 0.208317
0.499272 0.400632 0.208317
0.588483 0.400632 0.208317
0.676528 0.400632 0.208317
0.763585 0.400632 0.208317
0.849785 0.400632 0.208317
0.122631 0.489483 0.208317
0.221337 0.489483 0.208317
0.316217 0.489483 0.208317
0.408645 0.489483 0.208317
0.499272 0.489483 0.208317
0.588483 0.489483 0.208317
0.676528 0.489483 0.208317
0.763585 0.489483 0.208317
0.849785 0.489483 0.208317
0.122631 0.576944 0.208317
0.221337 0.576944 0.208317
0.316217 0.576944 0.208317
0.408645 0.576944 0.208317
0.499272 0.576944 0.208317
0.588483 0.576944 0.208317
0.676528 0.576944 0.208317
0.763585 0.576944 0.208317
0.849785 0.576944 0.208317
0.122631 0.663263 0.208317
0.221337 0.663263 0.208317
0.316217 0.663263 0.208317
0.408645 0.663263 0.208317
0.499272 0.663263 0.208317
0.588483 0.663263 0.208317
0.676528 0.663263 0.208317
0.763585 0.663263 0.208317
0.849785 0.663263 0.208317
0.122631 0.748612 0.208317
0.221337 0.748612 0.208317
0.316217 0.748612 0.208317
0.408645 0.748612 0.208317
0.499272 0.748612 0.208317
0.588483 0.748612 0.208317
0.676528 0.748612 0.208317
0.763585 0.748612 0.208317
0.849785 0.748612 0.208317
0.122631 0.833122 0.208317
0.221337 0.833122 0.208317
0.316217 0.833122 0.208317
0.408645 0.833122 0.208317
0.499272 0.833122 0.208317
0.588483 0.833122 0.208317
0.676528 0.833122 0.208317
0.763585 0.833122 0.208317
0.849785 0.833122 0.208317
0.122631 0.120226 0.297616
0.221337 0.120226 0.297616
0.316217 0.120226 0.297616
0.408645 0.120226 0.297616
0.499272 0.120226 0.297616
0.588483 0.120226 0.297616
0.676528 0.120226 0.297616
0.763585 0.120226 0.297616
0.849785 0.120226 0.297616
0.122631 0.216997 0.297616
0.221337 0.216997 0.297616
0.316217 0.216997 0.297616
0.408645 0.216997 0.297616
0.499272 0.216997 0.297616
0.588483 0.216997 0.297616
0.676528 0.216997 0.297616
0.763585 0.216997 0.297616
0.849785 0.216997 0.297616
0.122631 0.310017 0.297616
0.221337 0.310017 0.297616
0.316217 0.310017 0.297616
0.408645 0.310017 0.297616
0.499272 0.310017 0.297616
0.588483 0.310017 0.297616
0.676528 0.310017 0.297616
0.763585 0.310017 0.297616
0.849785 0.310017 0.297616
0.122631 0.400632 0.297616
0.221337 0.400632 0.297616
0.316217 0.400632 0.297616
0.408645 0.400632 0.297616
0.499272 0.400632 0.297616
0.588483 0.400632 0.297616
0.676528 0.400632 0.297616
0.763585 0.400632 0.297616
0.849785 0.400632 0.297616
0.122631 0.489483 0.297616
0.221337 0.489483 0.297616
0.316217 0.489483 0.297616
0.408645 0.489483 0.297616
0.499272 0.489483 0.297616
0.588483 0.489483 0.297616
0.676528 0.489483 0.297616
0.763585 0.489483 0.297616
0.849785 0.489483 0.297616
0.122631 0.576944 0.297616
0.221337 0.576944 0.297616
0.316217 0.576944 0.297616
0.408645 0.576944 0.297616
0.499272 0.576944 0.297616
0.588483 0.576944 0.297616
0.676528 0.576944 0.297616
0.763585 0.576944 0.297616
0.849785 0.576944 0.297616
0.122631 0.663263 0.297616
0.221337 0.663263 0.297616
0.316217 0.663263 0.297616
0.408645 0.663263 0.297616
0.499272 0.663263 0.297616
0.588483 0.663263 0.297616
0.676528 0.663263 0.297616
0.763585 0.663263 0.297616
0.849785 0.663263 0.297616
0.122631 0.748612 0.297616
0.221337 0.748612 0.297616
0.316217 0.748612 0.297616
0.408645 0.748612 0.297616
0.499272 0.748612 0.297616
0.588483 0.748612 0.297616
0.676528 0.748612 0.297616
0.763585 0.748612 0.297616
0.849785 0.748612 0.297616
0.122631 0.833122 0.297616
0.221337 0.833122 0.297616
0.316217 0.833122 0.297616
0.408645 0.833122 0.297616
0.499272 0.833122 0.297616
0.588483 0.833122 0.297616
0.676528 0.833122 0.297616
0.763585 0.833122 0.297616
0.849785 0.833122 0.297616
0.122631 0.120226 0.384607
0.221337 0.120226 0.384607
0.316217 0.120226 0.384607
0.408645 0.120226 0.384607
0.499272 0.120226 0.384607
0.588483 0.120226 0.384607
0.676528 0.120226 0.384607
0.763585 0.120226 0.384607
0.849785 0.120226 0.384607
0.122631 0.216997 0.384607
0.221337 0.216997 0.384607
0.316217 0.216997 0.384607
0.408645 0.216997 0.384607
0.499272 0.216997 0.384607
0.588483 0.216997 0.384607
0.676528 0.216997 0.384607
0.763585 0.216997 0.384607
0.849785 0.216997 0.384607
0.122631 0.310017 0.384607
0.221337 0.310017 0.384607
0.316217 0.310017 0.384607
0.408645 0.310017 0.384607
0.499272 0.310017 0.384607
0.588483 0.310017 0.384607
0.676528 0.310017 0.384607
0.763585 0.310017 0.384607
0.849785 0.310017 0.384607
0.122631 0.400632 0.384607
0.221337 0.400632 0.384607
0.316217 0.400632 0.384607
0.408645 0.400632 0.384607
0.499272 0.400632 0.384607
0.588483 0.400632 0.384607
0.676528 0.400632 0.384607
0.763585 0.400632 0.384607
0.849785 0.400632 0.384607
0.122631 0.489483 0.384607
0.221337 0.489483 0.384607
0.316217 0.489483 0.384607
0.408645 0.489483 0.384607
0.499272 0.489483 0.384607
0.588483 0.489483 0.384607
0.676528 0.489483 0.384607
0.763585 0.489483 0.384607
0.849785 0.489483 0.384607
0.122631 0.576944 0.384607
0.221337 0.576944 0.384607
0.316217 0.576944 0.384607
0.408645 0.576944 0.384607
0.499272 0.576944 0.384607
0.588483 0.576944 0.384607
0.676528 0.576944 0.384607
0.763585 0.576944 0.384607
0.849785 0.576944 0.384607
0.122631 0.663263 0.384607
0.221337 0.663263 0.384607
0.316217 0.663263 0.384607
0.408645 0.663263 0.384607
0.499272 0.663263 0.384607
0.588483 0.663263 0.384607
0.676528 0.663263 0.384607
0.763585 0.663263 0.384607
0.849785 0.663263 0.384607
0.122631 0.748612 0.384607
0.221337 0.748612 0.384607
0.316217 0.748612 0.384607
0.408645 0.748612 0.384607
0.499272 0.748612 0.384607
0.588483 0.748612 0.384607
0.676528 0.748612 0.384607
0.763585 0.748612 0.384607
0.849785 0.748612 0.384607
0.122631 0.833122 0.384607
0.221337 0.833122 0.384607
0.316217 0.833122 0.384607
0.408645 0.833122 0.384607
0.499272 0.833122 0.384607
0.588483 0.833122 0.384607
0.676528 0.833122 0.384607
0.763585 0.833122 0.384607
0.849785 0.833122 0.384607
0.122631 0.120226 0.469903
0.221337 0.120226 0.469903
0.316217 0.120226 0.469903
0.408645 0.120226 0.469903
0.499272 0.120226 0.469903
0.588483 0.120226 0.469903
0.676528 0.120226 0.469903
0.763585 0.120226 0.469903
0.849785 0.120226 0.469903
0.122631 0.216997 0.469903
0.221337 0.216997 0.469903
0.316217 0.216997 0.469903
0.408645 0.216997 0.469903
0.499272 0.216997 0.469903
0.588483 0.216997 0.469903
0.676528 0.216997 0.469903
0.763585 0.216997 0.469903
0.849785 0.216997 0.469903
0.122631 0.310017 0.469903
0.221337 0.310017 0.469903
0.316217 0.310017 0.469903
0.408645 0.310017 0.469903
0.499272 0.310017 0.469903
0.588483 0.310017 0.469903
0.676528 0.310017 0.469903
0.763585 0.310017 0.469903
0.849785 0.310017 0.469903
0.122631 0.400632 0.469903
0.221337 0.400632 0.469903
0.316217 0.400632 0.469903
0.408645 0.400632 0.469903
0.499272 0.400632 0.469903
0.588483 0.400632 0.469903
0.676528 0.400632 0.469903
0.763585 0.400632 0.469903
0.849785 0.400632 0.469903
0.122631 0.489483 0.469903
0.221337 0.489483 0.469903
0.316217 0.489483 0.469903
0.408645 0.489483 0.469903
0.499272 0.489483 0.469903
0.588483 0.489483 0.469903
0.676528 0.489483 0.469903
0.763585 0.489483 0.469903
0.849785 0.489483 0.469903
0.122631 0.576944 0.469903
0.221337 0.576944 0.469903
0.316217 0.576944 0.469903
0.408645 0.576944 0.469903
0.499272 0.576944 0.469903
0.588483 0.576944 0.469903
0.676528 0.576944 0.469903
0.763585 0.576944 0.469903
0.849785 0.576944 0.469903
0.122631 0.663263 0.469903
0.221337 0.663263 0.469903
0.316217 0.663263 0.469903
0.408645 0.663263 0.469903
0.499272 0.663263 0.469903
0.588483 0.663263 0.469903
0.676528 0.663263 0.469903
0.763585 0.663263 0.469903
0.849785 0.663263 0.469903
0.122631 0.748612 0.469903
0.221337 0.748612 0.469903
0.316217 0.748612 0.469903
0.408645 0.748612 0.469903
0.499272 0.748612 0.469903
0.588483 0.748612 0.469903
0.676528 0.748612 0.469903
0.763585 0.748612 0.469903
0.849785 0.748612 0.469903
0.122631 0.833122 0.469903
0.221337 0.833122 0.469903
0.316217 0.833122 0.469903
0.408645 0.833122 0.469903
0.499272 0.833122 0.469903
0.588483 0.833122 0.469903
0.676528 0.833122 0.469903
0.763585 0.833122 0.469903
0.849785 0.833122 0.469903
0.122631 0.120226 0.553866
0.221337 0.120226 0.553866
0.316217 0.120226 0.553866
0.408645 0.120226 0.553866
0.499272 0.120226 0.553866
0.588483 0.120226 0.553866
0.676528 0.120226 0.553866
0.763585 0.120226 0.553866
0.849785 0.120226 0.553866
0.122631 0.216997 0.553866
0.221337 0.216997 0.553866
0.316217 0.216997 0.553866
0.408645 0.216997 0.553866
0.499272 0.216997 0.553866
0.588483 0.216997 0.553866
0.676528 0.216997 0.553866
0.763585 0.216997 0.553866
0.849785 0.216997 0.553866
0.122631 0.310017 0.553866
0.221337 0.310017 0.553866
0.316217 0.310017 0.553866
0.408645 0.310017 0.553866
0.499272 0.310017 0.553866
0.588483 0.310017 0.553866
0.676528 0.310017 0.553866
0.763585 0.310017 0.553866
0.849785 0.310017 0.553866
0.122631 0.400632 0.553866
0.221337 0.400632 0.553866
0.316217 0.400632 0.553866
0.408645 0.400632 0.553866
0.499272 0.400632 0.553866
0.588483 0.400632 0.553866
0.676528 0.400632 0.553866
0.763585 0.400632 0.553866
0.849785 0.400632 0.553866
0.122631 0.489483 0.553866
0.221337 0.489483 0.553866
0.316217 0.489483 0.553866
0.408645 0.489483 0.553866
0.499272 0.489483 0.553866
0.588483 0.489483 0.553866
0.676528 0.489483 0.553866
0.763585 0.489483 0.553866
0.849785 0.489483 0.553866
0.122631 0.576944 0.553866
0.221337 0.576944 0.553866
0.316217 0.576944 0.553866
0.408645 0.576944 0.553866
0.499272 0.576944 0.553866
0.588483 0.576944 0.553866
0.676528 0.576944 0.553866
0.763585 0.576944 0.553866
0.849785 0.576944 0.553866
0.122631 0.663263 0.553866
0.221337 0.663263 0.553866
0.316217 0.663263 0.553866
0.408645 0.663263 0.553866
0.499272 0.663263 0.553866
0.588483 0.663263 0.553866
0.676528 0.663263 0.553866
0.763585 0.663263 0.553866
0.849785 0.663263 0.553866
0.122631 0.748612 0.553866
0.221337 0.748612 0.553866
0.316217 0.748612 0.553866
0.408645 0.748612 0.553866
0.499272 0.748612 0.553866
0.588483 0.748612 0.553866
0.676528 0.748612 0.553866
0.763585 0.748612 0.553866
0.849785 0.748612 0.553866
0.122631 0.833122 0.553866
0.221337 0.833122 0.553866
0.316217 0.833122 0.553866
0.408645 0.833122 0.553866
0.499272 0.833122 0.553866
0.588483 0.833122 0.553866
0.676528 0.833122 0.553866
0.763585 0.833122 0.553866
0.849785 0.833122 0.553866
0.122631 0.120226 0.636732
0.221337 0.120226 0.636732
0.316217 0.120226 0.636732
0.408645 0.120226 0.636732
0.499272 0.120226 0.636732
0.588483 0.120226 0.636732
0.676528 0.120226 0.636732
0.763585 0.120226 0.636732
0.849785 0.120226 0.636732
0.122631 0.216997 0.636732
0.221337 0.216997 0.636732
0.316217 0.216997 0.636732
0.408645 0.216997 0.636732
0.499272 0.216997 0.636732
0.588483 0.216997 0.636732
0.676528 0.216997 0.636732
0.763585 0.216997 0.636732
0.849785 0.216997 0.636732
0.122631 0.310017 0.636732
0.221337 0.310017 0.636732
0.316217 0.310017 0.636732
0.408645 0.310017 0.636732
0.499272 0.310017 0.636732
0.588483 0.310017 0.636732
0.676528 0.310017 0.636732
0.763585 0.310017 0.636732
0.849785 0.310017 0.636732
0.122631 0.400632 0.636732
0.221337 0.400632 0.636732
0.316217 0.400632 0.636732
0.408645 0.400632 0.636732
0.499272 0.400632 0.636732
0.588483 0.400632 0.636732
0.676528 0.400632 0.636732
0.763585 0.400632 0.636732
0.849785 0.400632 0.636732
0.122631 0.489483 0.636732
0.221337 0.489483 0.636732
0.316217 0.489483 0.636732
0.408645 0.489483 0.636732
0.499272 0.489483 0.636732
0.588483 0.489483 0.636732
0.676528 0.489483 0.636732
0.763585 0.489483 0.636732
0.849785 0.489483 0.636732
0.122631 0.576944 0.636732
0.221337 0.576944 0.636732
0.316217 0.576944 0.636732
0.408645 0.576944 0.636732
0.499272 0.576944 0.636732
0.588483 0.576944 0.636732
0.676528 0.576944 0.636732
0.763585 0.576944 0.636732
0.849785 0.576944 0.636732
0.122631 0.663263 0.636732
0.221337 0.663263 0.636732
0.316217 0.663263 0.636732
0.408645 0.663263 0.636732
0.499272 0.663263 0.636732
0.588483 0.663263 0.636732
0.676528 0.663263 0.636732
0.763585 0.663263 0.636732
0.849785 0.663263 0.636732
0.122631 0.748612 0.636732
0.221337 0.748612 0.636732
0.316217 0.748612 0.636732
0.408645 0.748612 0.636732
0.499272 0.748612 0.636732
0.588483 0.748612 0.636732
0.676528 0.748612 0.636732
0.763585 0.748612 0.636732
0.849785 0.748612 0.636732
0.122631 0.833122 0.636732
0.221337 0.833122 0.636732
0.316217 0.833122 0.636732
0.408645 0.833122 0.636732
0.499272 0.833122 0.636732
0.588483 0.833122 0.636732
0.676528 0.833122 0.636732
0.763585 0.833122 0.636732
0.849785 0.833122 0.636732
0.122631 0.120226 0.718668
0.221337 0.120226 0.718668
0.316217 0.120226 0.718668
0.408645 0.120226 0.718668
0.499272 0.120226 0.718668
0.588483 0.120226 0.718668
0.676528 0.120226 0.718668
0.763585 0.120226 0.718668
0.849785 0.120226 0.718668
0.122631 0.216997 0.718668
0.221337 0.216997 0.718668
0.316217 0.216997 0.718668
0.408645 0.216997 0.718668
0.499272 0.216997 0.718668
0.588483 0.216997 0.718668
0.676528 0.216997 0.718668
0.763585 0.216997 0.718668
0.849785 0.216997 0.718668
0.122631 0.310017 0.718668
0.221337 0.310017 0.718668
0.316217 0.310017 0.718668
0.408645 0.310017 0.718668
0.499272 0.310017 0.718668
0.588483 0.310017 0.718668
0.676528 0.310017 0.718668
0.763585 0.310017 0.718668
0.849785 0.310017 0.718668
0.122631 0.400632 0.718668
0.221337 0.400632 0.718668
0.316217 0.400632 0.718668
0.408645 0.400632 0.718668
0.499272 0.400632 0.718668
0.588483 0.400632 0.718668
0.676528 0.400632 0.718668
0.763585 0.400632 0.718668
0.849785 0.400632 0.718668
0.122631 0.489483 0.718668
0.221337 0.489483 0.718668
0.316217 0.489483 0.718668
0.408645 0.489483 0.718668
0.499272 0.489483 0.718668
0.588483 0.489483 0.718668
0.676528 0.489483 0.718668
0.763585 0.489483 0.718668
0.849785 0.489483 0.718668
0.122631 0.576944 0.718668
0.221337 0.576944 0.718668
0.316217 0.576944 0.718668
0.408645 0.576944 0.718668
0.499272 0.576944 0.718668
0.588483 0.576944 0.718668
0.676528 0.576944 0.718668
0.763585 0.576944 0.718668
0.849785 0.576944 0.718668
0.122631 0.663263 0.718668
0.221337 0.663263 0.718668
0.316217 0.663263 0.718668
0.408645 0.663263 0.718668
0.499272 0.663263 0.718668
0.588483 0.663263 0.718668
0.676528 0.663263 0.718668
0.763585 0.663263 0.718668
0.849785 0.663263 0.718668
0.122631 0.748612 0.718668
0.221337 0.748612 0.718668
0.316217 0.748612 0.718668
0.408645 0.748612 0.718668
0.499272 0.748612 0.718668
0.588483 0.748612 0.718668
0.676528 0.748612 0.718668
0.763585 0.748612 0.718668
0.849785 0.748612 0.718668
0.122631 0.833122 0.718668
0.221337 0.833122 0.718668
0.316217 0.833122 0.718668
0.408645 0.833122 0.718668
0.499272 0.833122 0.718668
0.588483 0.833122 0.718668
0.676528 0.833122 0.718668
0.763585 0.833122 0.718668
0.849785 0.833122 0.718668
0.122631 0.120226 0.799797
0.221337 0.120226 0.799797
0.316217 0.120226 0.799797
0.408645 0.120226 0.799797
0.499272 0.120226 0.799797
0.588483 0.120226 0.799797
0.676528 0.120226 0.799797
0.763585 0.120226 0.799797
0.849785 0.120226 0.799797
0.122631 0.216997 0.799797
0.221337 0.216997 0.799797
0.316217 0.216997 0.799797
0.408645 0.216997 0.799797
0.499272 0.216997 0.799797
0.588483 0.216997 0.799797
0.676528 0.216997 0.799797
0.763585 0.216997 0.799797
0.849785 0.216997 0.799797
0.122631 0.310017 0.799797
0.221337 0.310017 0.799797
0.316217 0.310017 0.799797
0.408645 0.310017 0.799797
0.499272 0.310017 0.799797
0.588483 0.310017 0.799797
0.676528 0.310017 0.799797
0.763585 0.310017 0.799797
0.849785 0.310017 0.799797
0.122631 0.400632 0.799797
0.221337 0.400632 0.799797
0.316217 0.400632 0.799797
0.408645 0.400632 0.799797
0.499272 0.400632 0.799797
0.588483 0.400632 0.799797
0.676528 0.400632 0.799797
0.763585 0.400632 0.799797
0.849785 0.400632 0.799797
0.122631 0.489483 0.799797
0.221337 0.489483 0.799797
0.316217 0.489483 0.799797
0.408645 0.489483 0.799797
0.499272 0.489483 0.799797
0.588483 0.489483 0.799797
0.676528 0.489483 0.799797
0.763585 0.489483 0.799797
0.849785 0.489483 0.799797
0.122631 0.576944 0.799797
0.221337 0.576944 0.799797
0.316217 0.576944 0.799797
0.408645 0.576944 0.799797
0.499272 0.576944 0.799797
0.588483 0.576944 0.799797
0.676528 0.576944 0.799797
0.763585 0.576944 0.799797
0.849785 0.576944 0.799797
0.122631 0.663263 0.799797
0.221337 0.663263 0.799797
0.316217 0.663263 0.799797
0.408645 0.663263 0.799797
0.499272 0.663263 0.799797
0.588483 0.663263 0.799797
0.676528 0.663263 0.799797
0.763585 0.663263 0.799797
0.849785 0.663263 0.799797
0.122631 0.748612 0.799797
0.221337 0.748612 0.799797
0.316217 0.748612 0.799797
0.408645 0.748612 0.799797
0.499272 0.748612 0.799797
0.588483 0.748612 0.799797
0.676528 0.748612 0.799797
0.763585 0.748612 0.799797
0.849785 0.748612 0.799797
0.122631 0.833122 0.799797
0.221337 0.833122 0.799797
0.316217 0.833122 0.799797
0.408645 0.833122 0.799797
0.499272 0.833122 0.799797
0.588483 0.833122 0.799797
0.676528 0.833122 0.799797
0.763585 0.833122 0.799797
0.849785 0.833122 0.799797
