CineCam/app/src/main/assets/luts/cinecam_flat_log.cube
TITLE "CineCam Flat Log"
LUT_3D_SIZE 5
DOMAIN_MIN 0.0 0.0 0.0
DOMAIN_MAX 1.0 1.0 1.0
0.122631 0.120226 0.115417
0.316217 0.120226 0.115417
0.499272 0.120226 0.115417
0.676528 0.120226 0.115417
0.849785 0.120226 0.115417
0.122631 0.310017 0.115417
0.316217 0.310017 0.115417
0.499272 0.310017 0.115417
0.676528 0.310017 0.115417
0.849785 0.310017 0.115417
0.122631 0.489483 0.115417
0.316217 0.489483 0.115417
0.499272 0.489483 0.115417
0.676528 0.489483 0.115417
0.849785 0.489483 0.115417
0.122631 0.663263 0.115417
0.316217 0.663263 0.115417
0.499272 0.663263 0.115417
0.676528 0.663263 0.115417
0.849785 0.663263 0.115417
0.122631 0.833122 0.115417
0.316217 0.833122 0.115417
0.499272 0.833122 0.115417
0.676528 0.833122 0.115417
0.849785 0.833122 0.115417
0.122631 0.120226 0.297616
0.316217 0.120226 0.297616
0.499272 0.120226 0.297616
0.676528 0.120226 0.297616
0.849785 0.120226 0.297616
0.122631 0.310017 0.297616
0.316217 0.310017 0.297616
0.499272 0.310017 0.297616
0.676528 0.310017 0.297616
0.849785 0.310017 0.297616
0.122631 0.489483 0.297616
0.316217 0.489483 0.297616
0.499272 0.489483 0.297616
0.676528 0.489483 0.297616
0.849785 0.489483 0.297616
0.122631 0.663263 0.297616
0.316217 0.663263 0.297616
0.499272 0.663263 0.297616
0.676528 0.663263 0.297616
0.849785 0.663263 0.297616
0.122631 0.833122 0.297616
0.316217 0.833122 0.297616
0.499272 0.833122 0.297616
0.676528 0.833122 0.297616
0.849785 0.833122 0.297616
0.122631 0.120226 0.469903
0.316217 0.120226 0.469903
0.499272 0.120226 0.469903
0.676528 0.120226 0.469903
0.849785 0.120226 0.469903
0.122631 0.310017 0.469903
0.316217 0.310017 0.469903
0.499272 0.310017 0.469903
0.676528 0.310017 0.469903
0.849785 0.310017 0.469903
0.122631 0.489483 0.469903
0.316217 0.489483 0.469903
0.499272 0.489483 0.469903
0.676528 0.489483 0.469903
0.849785 0.489483 0.469903
0.122631 0.663263 0.469903
0.316217 0.663263 0.469903
0.499272 0.663263 0.469903
0.676528 0.663263 0.469903
0.849785 0.663263 0.469903
0.122631 0.833122 0.469903
0.316217 0.833122 0.469903
0.499272 0.833122 0.469903
0.676528 0.833122 0.469903
0.849785 0.833122 0.469903
0.122631 0.120226 0.636732
0.316217 0.120226 0.636732
0.499272 0.120226 0.636732
0.676528 0.120226 0.636732
0.849785 0.120226 0.636732
0.122631 0.310017 0.636732
0.316217 0.310017 0.636732
0.499272 0.310017 0.636732
0.676528 0.310017 0.636732
0.849785 0.310017 0.636732
0.122631 0.489483 0.636732
0.316217 0.489483 0.636732
0.499272 0.489483 0.636732
0.676528 0.489483 0.636732
0.849785 0.489483 0.636732
0.122631 0.663263 0.636732
0.316217 0.663263 0.636732
0.499272 0.663263 0.636732
0.676528 0.663263 0.636732
0.849785 0.663263 0.636732
0.122631 0.833122 0.636732
0.316217 0.833122 0.636732
0.499272 0.833122 0.636732
0.676528 0.833122 0.636732
0.849785 0.833122 0.636732
0.122631 0.120226 0.799797
0.316217 0.120226 0.799797
0.499272 0.120226 0.799797
0.676528 0.120226 0.799797
0.849785 0.120226 0.799797
0.122631 0.310017 0.799797
0.316217 0.310017 0.799797
0.499272 0.310017 0.799797
0.676528 0.310017 0.799797
0.849785 0.310017 0.799797
0.122631 0.489483 0.799797
0.316217 0.489483 0.799797
0.499272 0.489483 0.799797
0.676528 0.489483 0.799797
0.849785 0.489483 0.799797
0.122631 0.663263 0.799797
0.316217 0.663263 0.799797
0.499272 0.663263 0.799797
0.676528 0.663263 0.799797
0.849785 0.663263 0.799797
0.122631 0.833122 0.799797
0.316217 0.833122 0.799797
0.499272 0.833122 0.799797
0.676528 0.833122 0.799797
0.849785 0.833122 0.799797
