CineCam/app/src/main/assets/luts/mono_contrast.cube
TITLE "CineCam Mono Contrast"
LUT_3D_SIZE 5
DOMAIN_MIN 0.0 0.0 0.0
DOMAIN_MAX 1.0 1.0 1.0
0.000000 0.000000 0.000000
0.000000 0.000000 0.000000
0.022385 0.022385 0.022385
0.115248 0.115248 0.115248
0.212388 0.212388 0.212388
0.019144 0.019144 0.019144
0.111734 0.111734 0.111734
0.208768 0.208768 0.208768
0.308084 0.308084 0.308084
0.408974 0.408974 0.408974
0.205152 0.205152 0.205152
0.304399 0.304399 0.304399
0.405239 0.405239 0.405239
0.507300 0.507300 0.507300
0.610355 0.610355 0.610355
0.401506 0.401506 0.401506
0.503527 0.503527 0.503527
0.606548 0.606548 0.606548
0.710414 0.710414 0.710414
0.815010 0.815010 0.815010
0.602743 0.602743 0.602743
0.706579 0.706579 0.706579
0.811150 0.811150 0.811150
0.916368 0.916368 0.916368
1.000000 1.000000 1.000000
0.000000 0.000000 0.000000
0.000000 0.000000 0.000000
0.056972 0.056972 0.056972
0.151949 0.151949 0.151949
0.250063 0.250063 0.250063
0.053576 0.053576 0.053576
0.148387 0.148387 0.148387
0.246416 0.246416 0.246416
0.346388 0.346388 0.346388
0.447774 0.447774 0.447774
0.242770 0.242770 0.242770
0.342683 0.342683 0.342683
0.444023 0.444023 0.444023
0.546485 0.546485 0.546485
0.649875 0.649875 0.649875
0.440273 0.440273 0.440273
0.542698 0.542698 0.542698
0.646057 0.646057 0.646057
0.750212 0.750212 0.750212
0.855063 0.855063 0.855063
0.642239 0.642239 0.642239
0.746368 0.746368 0.746368
0.851194 0.851194 0.851194
0.956641 0.956641 0.956641
1.000000 1.000000 1.000000
0.000000 0.000000 0.000000
0.002136 0.002136 0.002136
0.092661 0.092661 0.092661
0.189080 0.189080 0.189080
0.288012 0.288012 0.288012
0.089184 0.089184 0.089184
0.185481 0.185481 0.185481
0.284340 0.284340 0.284340
0.384896 0.384896 0.384896
0.486734 0.486734 0.486734
0.280669 0.280669 0.280669
0.381172 0.381172 0.381172
0.482968 0.482968 0.482968
0.585803 0.585803 0.585803
0.689510 0.689510 0.689510
0.479204 0.479204 0.479204
0.582004 0.582004 0.582004
0.685680 0.685680 0.685680
0.790112 0.790112 0.790112
0.895206 0.895206 0.895206
0.681852 0.681852 0.681852
0.786257 0.786257 0.786257
0.891329 0.891329 0.891329
0.996995 0.996995 0.996995
1.000000 1.000000 1.000000
0.000000 0.000000 0.000000
0.035250 0.035250 0.035250
0.129034 0.129034 0.129034
0.226564 0.226564 0.226564
0.326201 0.326201 0.326201
0.125501 0.125501 0.125501
0.222934 0.222934 0.222934
0.322507 0.322507 0.322507
0.423589 0.423589 0.423589
0.525844 0.525844 0.525844
0.318814 0.318814 0.318814
0.419848 0.419848 0.419848
0.522064 0.522064 0.522064
0.625248 0.625248 0.625248
0.729253 0.729253 0.729253
0.518285 0.518285 0.518285
0.621437 0.621437 0.621437
0.725413 0.725413 0.725413
0.830107 0.830107 0.830107
0.935435 0.935435 0.935435
0.721575 0.721575 0.721575
0.826244 0.826244 0.826244
0.931549 0.931549 0.931549
1.000000 1.000000 1.000000
1.000000 1.000000 1.000000
0.000000 0.000000 0.000000
0.070335 0.070335 0.070335
0.165909 0.165909 0.165909
0.264347 0.264347 0.264347
0.364605 0.364605 0.364605
0.162332 0.162332 0.162332
0.260690 0.260690 0.260690
0.360891 0.360891 0.360891
0.462451 0.462451 0.462451
0.565093 0.565093 0.565093
0.357178 0.357178 0.357178
0.458694 0.458694 0.458694
0.561300 0.561300 0.561300
0.664812 0.664812 0.664812
0.769100 0.769100 0.769100
0.557508 0.557508 0.557508
0.660989 0.660989 0.660989
0.765250 0.765250 0.765250
0.870194 0.870194 0.870194
0.975746 0.975746 0.975746
0.761402 0.761402 0.761402
0.866322 0.866322 0.866322
0.971853 0.971853 0.971853
1.000000 1.000000 1.000000
1.000000 1.000000 1.000000
