CineCam/app/src/main/assets/luts/mono_contrast.cube
TITLE "CineCam Mono Contrast"
LUT_3D_SIZE 9
DOMAIN_MIN 0.0 0.0 0.0
DOMAIN_MAX 1.0 1.0 1.0
0.000000 0.000000 0.000000
0.000000 0.000000 0.000000
0.000000 0.000000 0.000000
0.000000 0.000000 0.000000
0.022385 0.022385 0.022385
0.067995 0.067995 0.067995
0.115248 0.115248 0.115248
0.163470 0.163470 0.163470
0.212388 0.212388 0.212388
0.000000 0.000000 0.000000
0.000000 0.000000 0.000000
0.020762 0.020762 0.020762
0.066281 0.066281 0.066281
0.113490 0.113490 0.113490
0.161682 0.161682 0.161682
0.210578 0.210578 0.210578
0.260025 0.260025 0.260025
0.309927 0.309927 0.309927
0.019144 0.019144 0.019144
0.064570 0.064570 0.064570
0.111734 0.111734 0.111734
0.159895 0.159895 0.159895
0.208768 0.208768 0.208768
0.258197 0.258197 0.258197
0.308084 0.308084 0.308084
0.358359 0.358359 0.358359
0.408974 0.408974 0.408974
0.109979 0.109979 0.109979
0.158110 0.158110 0.158110
0.206960 0.206960 0.206960
0.256370 0.256370 0.256370
0.306241 0.306241 0.306241
0.356503 0.356503 0.356503
0.407106 0.407106 0.407106
0.458011 0.458011 0.458011
0.509188 0.509188 0.509188
0.205152 0.205152 0.205152
0.254544 0.254544 0.254544
0.304399 0.304399 0.304399
0.354648 0.354648 0.354648
0.405239 0.405239 0.405239
0.456134 0.456134 0.456134
0.507300 0.507300 0.507300
0.558715 0.558715 0.558715
0.610355 0.610355 0.610355
0.302558 0.302558 0.302558
0.352793 0.352793 0.352793
0.403372 0.403372 0.403372
0.454256 0.454256 0.454256
0.505413 0.505413 0.505413
0.556819 0.556819 0.556819
0.608452 0.608452 0.608452
0.660294 0.660294 0.660294
0.712332 0.712332 0.712332
0.401506 0.401506 0.401506
0.452379 0.452379 0.452379
0.503527 0.503527 0.503527
0.554924 0.554924 0.554924
0.606548 0.606548 0.606548
0.658384 0.658384 0.658384
0.710414 0.710414 0.710414
0.762626 0.762626 0.762626
0.815010 0.815010 0.815010
0.501641 0.501641 0.501641
0.553029 0.553029 0.553029
0.604645 0.604645 0.604645
0.656473 0.656473 0.656473
0.708496 0.708496 0.708496
0.760702 0.760702 0.760702
0.813080 0.813080 0.813080
0.865619 0.865619 0.865619
0.918310 0.918310 0.918310
0.602743 0.602743 0.602743
0.654563 0.654563 0.654563
0.706579 0.706579 0.706579
0.758779 0.758779 0.758779
0.811150 0.811150 0.811150
0.863683 0.863683 0.863683
0.916368 0.916368 0.916368
0.969199 0.969199 0.969199
1.000000 1.000000 1.000000
0.000000 0.000000 0.000000
0.000000 0.000000 0.000000
0.000000 0.000000 0.000000
0.000000 0.000000 0.000000
0.039493 0.039493 0.039493
0.085870 0.085870 0.085870
0.133538 0.133538 0.133538
0.182048 0.182048 0.182048
0.231189 0.231189 0.231189
0.000000 0.000000 0.000000
0.000000 0.000000 0.000000
0.037823 0.037823 0.037823
0.084137 0.084137 0.084137
0.131768 0.131768 0.131768
0.180252 0.180252 0.180252
0.229372 0.229372 0.229372
0.279002 0.279002 0.279002
0.329058 0.329058 0.329058
0.036157 0.036157 0.036157
0.082405 0.082405 0.082405
0.129999 0.129999 0.129999
0.178456 0.178456 0.178456
0.227555 0.227555 0.227555
0.277168 0.277168 0.277168
0.327209 0.327209 0.327209
0.377619 0.377619 0.377619
0.428353 0.428353 0.428353
0.128231 0.128231 0.128231
0.176661 0.176661 0.176661
0.225739 0.225739 0.225739
0.275335 0.275335 0.275335
0.325362 0.325362 0.325362
0.375759 0.375759 0.375759
0.426481 0.426481 0.426481
0.477493 0.477493 0.477493
0.528766 0.528766 0.528766
0.223924 0.223924 0.223924
0.273502 0.273502 0.273502
0.323514 0.323514 0.323514
0.373899 0.373899 0.373899
0.424610 0.424610 0.424610
0.475611 0.475611 0.475611
0.526875 0.526875 0.526875
0.578378 0.578378 0.578378
0.630100 0.630100 0.630100
0.321667 0.321667 0.321667
0.372039 0.372039 0.372039
0.422739 0.422739 0.422739
0.473730 0.473730 0.473730
0.524985 0.524985 0.524985
0.576479 0.576479 0.576479
0.628194 0.628194 0.628194
0.680112 0.680112 0.680112
0.732220 0.732220 0.732220
0.420868 0.420868 0.420868
0.471849 0.471849 0.471849
0.523095 0.523095 0.523095
0.574581 0.574581 0.574581
0.626288 0.626288 0.626288
0.678199 0.678199 0.678199
0.730300 0.730300 0.730300
0.782579 0.782579 0.782579
0.835025 0.835025 0.835025
0.521205 0.521205 0.521205
0.572683 0.572683 0.572683
0.624382 0.624382 0.624382
0.676286 0.676286 0.676286
0.728380 0.728380 0.728380
0.780653 0.780653 0.780653
0.833093 0.833093 0.833093
0.885691 0.885691 0.885691
0.938438 0.938438 0.938438
0.622476 0.622476 0.622476
0.674373 0.674373 0.674373
0.726460 0.726460 0.726460
0.778727 0.778727 0.778727
0.831161 0.831161 0.831161
0.883753 0.883753 0.883753
0.936494 0.936494 0.936494
0.989378 0.989378 0.989378
1.000000 1.000000 1.000000
0.000000 0.000000 0.000000
0.000000 0.000000 0.000000
0.000000 0.000000 0.000000
0.012026 0.012026 0.012026
0.056972 0.056972 0.056972
0.103925 0.103925 0.103925
0.151949 0.151949 0.151949
0.200718 0.200718 0.200718
0.250063 0.250063 0.250063
0.000000 0.000000 0.000000
0.010452 0.010452 0.010452
0.055272 0.055272 0.055272
0.102176 0.102176 0.102176
0.150167 0.150167 0.150167
0.198913 0.198913 0.198913
0.248239 0.248239 0.248239
0.298040 0.298040 0.298040
0.348242 0.348242 0.348242
0.053576 0.053576 0.053576
0.100429 0.100429 0.100429
0.148387 0.148387 0.148387
0.197108 0.197108 0.197108
0.246416 0.246416 0.246416
0.296200 0.296200 0.296200
0.346388 0.346388 0.346388
0.396926 0.396926 0.396926
0.447774 0.447774 0.447774
0.146608 0.146608 0.146608
0.195305 0.195305 0.195305
0.244593 0.244593 0.244593
0.294361 0.294361 0.294361
0.344536 0.344536 0.344536
0.395062 0.395062 0.395062
0.445898 0.445898 0.445898
0.497012 0.497012 0.497012
0.548379 0.548379 0.548379
0.242770 0.242770 0.242770
0.292523 0.292523 0.292523
0.342683 0.342683 0.342683
0.393197 0.393197 0.393197
0.444023 0.444023 0.444023
0.495127 0.495127 0.495127
0.546485 0.546485 0.546485
0.598073 0.598073 0.598073
0.649875 0.649875 0.649875
0.340831 0.340831 0.340831
0.391333 0.391333 0.391333
0.442148 0.442148 0.442148
0.493242 0.493242 0.493242
0.544591 0.544591 0.544591
0.596172 0.596172 0.596172
0.647966 0.647966 0.647966
0.699958 0.699958 0.699958
0.752135 0.752135 0.752135
0.440273 0.440273 0.440273
0.491358 0.491358 0.491358
0.542698 0.542698 0.542698
0.594270 0.594270 0.594270
0.646057 0.646057 0.646057
0.698042 0.698042 0.698042
0.750212 0.750212 0.750212
0.802556 0.802556 0.802556
0.855063 0.855063 0.855063
0.540805 0.540805 0.540805
0.592369 0.592369 0.592369
0.644148 0.644148 0.644148
0.696126 0.696126 0.696126
0.748290 0.748290 0.748290
0.800627 0.800627 0.800627
0.853129 0.853129 0.853129
0.905784 0.905784 0.905784
0.958586 0.958586 0.958586
0.642239 0.642239 0.642239
0.694210 0.694210 0.694210
0.746368 0.746368 0.746368
0.798699 0.798699 0.798699
0.851194 0.851194 0.851194
0.903844 0.903844 0.903844
0.956641 0.956641 0.956641
1.000000 1.000000 1.000000
1.000000 1.000000 1.000000
0.000000 0.000000 0.000000
0.000000 0.000000 0.000000
0.000000 0.000000 0.000000
0.028783 0.028783 0.028783
0.074714 0.074714 0.074714
0.122132 0.122132 0.122132
0.170466 0.170466 0.170466
0.219471 0.219471 0.219471
0.269006 0.269006 0.269006
0.000000 0.000000 0.000000
0.027140 0.027140 0.027140
0.072992 0.072992 0.072992
0.120369 0.120369 0.120369
0.168675 0.168675 0.168675
0.217658 0.217658 0.217658
0.267175 0.267175 0.267175
0.317136 0.317136 0.317136
0.367476 0.367476 0.367476
0.071273 0.071273 0.071273
0.118608 0.118608 0.118608
0.166885 0.166885 0.166885
0.215846 0.215846 0.215846
0.265345 0.265345 0.265345
0.315291 0.315291 0.315291
0.365618 0.365618 0.365618
0.416278 0.416278 0.416278
0.467235 0.467235 0.467235
0.165095 0.165095 0.165095
0.214034 0.214034 0.214034
0.263516 0.263516 0.263516
0.313447 0.313447 0.313447
0.363761 0.363761 0.363761
0.414409 0.414409 0.414409
0.465355 0.465355 0.465355
0.516568 0.516568 0.516568
0.568025 0.568025 0.568025
0.261687 0.261687 0.261687
0.311603 0.311603 0.311603
0.361903 0.361903 0.361903
0.412540 0.412540 0.412540
0.463476 0.463476 0.463476
0.514680 0.514680 0.514680
0.566128 0.566128 0.566128
0.617800 0.617800 0.617800
0.669678 0.669678 0.669678
0.360047 0.360047 0.360047
0.410672 0.410672 0.410672
0.461597 0.461597 0.461597
0.512792 0.512792 0.512792
0.564231 0.564231 0.564231
0.615895 0.615895 0.615895
0.667766 0.667766 0.667766
0.719830 0.719830 0.719830
0.772075 0.772075 0.772075
0.459719 0.459719 0.459719
0.510904 0.510904 0.510904
0.562334 0.562334 0.562334
0.613990 0.613990 0.613990
0.665854 0.665854 0.665854
0.717912 0.717912 0.717912
0.770150 0.770150 0.770150
0.822557 0.822557 0.822557
0.875124 0.875124 0.875124
0.560438 0.560438 0.560438
0.612086 0.612086 0.612086
0.663943 0.663943 0.663943
0.715993 0.715993 0.715993
0.768225 0.768225 0.768225
0.820626 0.820626 0.820626
0.873187 0.873187 0.873187
0.925899 0.925899 0.925899
0.978755 0.978755 0.978755
0.662032 0.662032 0.662032
0.714075 0.714075 0.714075
0.766300 0.766300 0.766300
0.818695 0.818695 0.818695
0.871251 0.871251 0.871251
0.923957 0.923957 0.923957
0.976808 0.976808 0.976808
1.000000 1.000000 1.000000
1.000000 1.000000 1.000000
0.000000 0.000000 0.000000
0.000000 0.000000 0.000000
0.002136 0.002136 0.002136
0.046049 0.046049 0.046049
0.092661 0.092661 0.092661
0.140469 0.140469 0.140469
0.189080 0.189080 0.189080
0.238300 0.238300 0.238300
0.288012 0.288012 0.288012
0.000713 0.000713 0.000713
0.044368 0.044368 0.044368
0.090922 0.090922 0.090922
0.138695 0.138695 0.138695
0.187280 0.187280 0.187280
0.236480 0.236480 0.236480
0.286176 0.286176 0.286176
0.336288 0.336288 0.336288
0.386759 0.386759 0.386759
0.089184 0.089184 0.089184
0.136921 0.136921 0.136921
0.185481 0.185481 0.185481
0.234661 0.234661 0.234661
0.284340 0.284340 0.284340
0.334437 0.334437 0.334437
0.384896 0.384896 0.384896
0.435673 0.435673 0.435673
0.486734 0.486734 0.486734
0.183682 0.183682 0.183682
0.232842 0.232842 0.232842
0.282504 0.282504 0.282504
0.332588 0.332588 0.332588
0.383034 0.383034 0.383034
0.433800 0.433800 0.433800
0.484851 0.484851 0.484851
0.536160 0.536160 0.536160
0.587703 0.587703 0.587703
0.280669 0.280669 0.280669
0.330738 0.330738 0.330738
0.381172 0.381172 0.381172
0.431927 0.431927 0.431927
0.482968 0.482968 0.482968
0.534268 0.534268 0.534268
0.585803 0.585803 0.585803
0.637556 0.637556 0.637556
0.689510 0.689510 0.689510
0.379311 0.379311 0.379311
0.430055 0.430055 0.430055
0.481086 0.481086 0.481086
0.532376 0.532376 0.532376
0.583903 0.583903 0.583903
0.635648 0.635648 0.635648
0.687595 0.687595 0.687595
0.739729 0.739729 0.739729
0.792039 0.792039 0.792039
0.479204 0.479204 0.479204
0.530485 0.530485 0.530485
0.582004 0.582004 0.582004
0.633741 0.633741 0.633741
0.685680 0.685680 0.685680
0.737808 0.737808 0.737808
0.790112 0.790112 0.790112
0.842581 0.842581 0.842581
0.895206 0.895206 0.895206
0.580104 0.580104 0.580104
0.631834 0.631834 0.631834
0.683766 0.683766 0.683766
0.735887 0.735887 0.735887
0.788184 0.788184 0.788184
0.840648 0.840648 0.840648
0.893267 0.893267 0.893267
0.946035 0.946035 0.946035
0.998943 0.998943 0.998943
0.681852 0.681852 0.681852
0.733966 0.733966 0.733966
0.786257 0.786257 0.786257
0.838715 0.838715 0.838715
0.891329 0.891329 0.891329
0.944091 0.944091 0.944091
0.996995 0.996995 0.996995
1.000000 1.000000 1.000000
1.000000 1.000000 1.000000
0.000000 0.000000 0.000000
0.000000 0.000000 0.000000
0.018265 0.018265 0.018265
0.063637 0.063637 0.063637
0.110776 0.110776 0.110776
0.158921 0.158921 0.158921
0.207782 0.207782 0.207782
0.257201 0.257201 0.257201
0.307079 0.307079 0.307079
0.016657 0.016657 0.016657
0.061928 0.061928 0.061928
0.109022 0.109022 0.109022
0.157136 0.157136 0.157136
0.205974 0.205974 0.205974
0.255374 0.255374 0.255374
0.305236 0.305236 0.305236
0.355491 0.355491 0.355491
0.406088 0.406088 0.406088
0.107269 0.107269 0.107269
0.155352 0.155352 0.155352
0.204166 0.204166 0.204166
0.253548 0.253548 0.253548
0.303395 0.303395 0.303395
0.353636 0.353636 0.353636
0.404221 0.404221 0.404221
0.455109 0.455109 0.455109
0.506271 0.506271 0.506271
0.202360 0.202360 0.202360
0.251722 0.251722 0.251722
0.301553 0.301553 0.301553
0.351781 0.351781 0.351781
0.402354 0.402354 0.402354
0.453232 0.453232 0.453232
0.504384 0.504384 0.504384
0.555785 0.555785 0.555785
0.607414 0.607414 0.607414
0.299713 0.299713 0.299713
0.349927 0.349927 0.349927
0.400488 0.400488 0.400488
0.451356 0.451356 0.451356
0.502498 0.502498 0.502498
0.553890 0.553890 0.553890
0.605510 0.605510 0.605510
0.657341 0.657341 0.657341
0.709368 0.709368 0.709368
0.398622 0.398622 0.398622
0.449479 0.449479 0.449479
0.500612 0.500612 0.500612
0.551995 0.551995 0.551995
0.603607 0.603607 0.603607
0.655431 0.655431 0.655431
0.707451 0.707451 0.707451
0.759653 0.759653 0.759653
0.812027 0.812027 0.812027
0.498726 0.498726 0.498726
0.550101 0.550101 0.550101
0.601705 0.601705 0.601705
0.653521 0.653521 0.653521
0.705534 0.705534 0.705534
0.757730 0.757730 0.757730
0.810097 0.810097 0.810097
0.862627 0.862627 0.862627
0.915310 0.915310 0.915310
0.599803 0.599803 0.599803
0.651611 0.651611 0.651611
0.703617 0.703617 0.703617
0.755806 0.755806 0.755806
0.808168 0.808168 0.808168
0.860692 0.860692 0.860692
0.913369 0.913369 0.913369
0.966191 0.966191 0.966191
1.000000 1.000000 1.000000
0.701700 0.701700 0.701700
0.753883 0.753883 0.753883
0.806239 0.806239 0.806239
0.858757 0.858757 0.858757
0.911428 0.911428 0.911428
0.964246 0.964246 0.964246
1.000000 1.000000 1.000000
1.000000 1.000000 1.000000
1.000000 1.000000 1.000000
0.000000 0.000000 0.000000
0.000000 0.000000 0.000000
0.035250 0.035250 0.035250
0.081462 0.081462 0.081462
0.129034 0.129034 0.129034
0.177476 0.177476 0.177476
0.226564 0.226564 0.226564
0.276168 0.276168 0.276168
0.326201 0.326201 0.326201
0.033590 0.033590 0.033590
0.079733 0.079733 0.079733
0.127267 0.127267 0.127267
0.175682 0.175682 0.175682
0.224749 0.224749 0.224749
0.274335 0.274335 0.274335
0.324354 0.324354 0.324354
0.374744 0.374744 0.374744
0.425460 0.425460 0.425460
0.125501 0.125501 0.125501
0.173888 0.173888 0.173888
0.222934 0.222934 0.222934
0.272502 0.272502 0.272502
0.322507 0.322507 0.322507
0.372884 0.372884 0.372884
0.423589 0.423589 0.423589
0.474585 0.474585 0.474585
0.525844 0.525844 0.525844
0.221119 0.221119 0.221119
0.270671 0.270671 0.270671
0.320660 0.320660 0.320660
0.371025 0.371025 0.371025
0.421718 0.421718 0.421718
0.472704 0.472704 0.472704
0.523954 0.523954 0.523954
0.575444 0.575444 0.575444
0.627154 0.627154 0.627154
0.318814 0.318814 0.318814
0.369166 0.369166 0.369166
0.419848 0.419848 0.419848
0.470824 0.470824 0.470824
0.522064 0.522064 0.522064
0.573545 0.573545 0.573545
0.625248 0.625248 0.625248
0.677155 0.677155 0.677155
0.729253 0.729253 0.729253
0.417978 0.417978 0.417978
0.468944 0.468944 0.468944
0.520175 0.520175 0.520175
0.571647 0.571647 0.571647
0.623342 0.623342 0.623342
0.675242 0.675242 0.675242
0.727333 0.727333 0.727333
0.779602 0.779602 0.779602
0.832039 0.832039 0.832039
0.518285 0.518285 0.518285
0.569750 0.569750 0.569750
0.621437 0.621437 0.621437
0.673329 0.673329 0.673329
0.725413 0.725413 0.725413
0.777676 0.777676 0.777676
0.830107 0.830107 0.830107
0.882696 0.882696 0.882696
0.935435 0.935435 0.935435
0.619531 0.619531 0.619531
0.671417 0.671417 0.671417
0.723494 0.723494 0.723494
0.775750 0.775750 0.775750
0.828175 0.828175 0.828175
0.880759 0.880759 0.880759
0.933492 0.933492 0.933492
0.986368 0.986368 0.986368
1.000000 1.000000 1.000000
0.721575 0.721575 0.721575
0.773825 0.773825 0.773825
0.826244 0.826244 0.826244
0.878821 0.878821 0.878821
0.931549 0.931549 0.931549
0.984420 0.984420 0.984420
1.000000 1.000000 1.000000
1.000000 1.000000 1.000000
1.000000 1.000000 1.000000
0.000000 0.000000 0.000000
0.008042 0.008042 0.008042
0.052651 0.052651 0.052651
0.099476 0.099476 0.099476
0.147416 0.147416 0.147416
0.196124 0.196124 0.196124
0.245421 0.245421 0.245421
0.295197 0.295197 0.295197
0.345378 0.345378 0.345378
0.050958 0.050958 0.050958
0.097730 0.097730 0.097730
0.145638 0.145638 0.145638
0.194321 0.194321 0.194321
0.243599 0.243599 0.243599
0.293358 0.293358 0.293358
0.343525 0.343525 0.343525
0.394044 0.394044 0.394044
0.444875 0.444875 0.444875
0.143860 0.143860 0.143860
0.192519 0.192519 0.192519
0.241777 0.241777 0.241777
0.291520 0.291520 0.291520
0.341673 0.341673 0.341673
0.392180 0.392180 0.392180
0.443000 0.443000 0.443000
0.494099 0.494099 0.494099
0.545452 0.545452 0.545452
0.239955 0.239955 0.239955
0.289682 0.289682 0.289682
0.339821 0.339821 0.339821
0.390316 0.390316 0.390316
0.441125 0.441125 0.441125
0.492215 0.492215 0.492215
0.543558 0.543558 0.543558
0.595134 0.595134 0.595134
0.646924 0.646924 0.646924
0.337970 0.337970 0.337970
0.388453 0.388453 0.388453
0.439251 0.439251 0.439251
0.490330 0.490330 0.490330
0.541665 0.541665 0.541665
0.593233 0.593233 0.593233
0.645015 0.645015 0.645015
0.696997 0.696997 0.696997
0.749164 0.749164 0.749164
0.437377 0.437377 0.437377
0.488446 0.488446 0.488446
0.539772 0.539772 0.539772
0.591332 0.591332 0.591332
0.643107 0.643107 0.643107
0.695081 0.695081 0.695081
0.747241 0.747241 0.747241
0.799576 0.799576 0.799576
0.852074 0.852074 0.852074
0.537880 0.537880 0.537880
0.589431 0.589431 0.589431
0.641198 0.641198 0.641198
0.693166 0.693166 0.693166
0.745319 0.745319 0.745319
0.797647 0.797647 0.797647
0.850139 0.850139 0.850139
0.902786 0.902786 0.902786
0.955580 0.955580 0.955580
0.639290 0.639290 0.639290
0.691250 0.691250 0.691250
0.743397 0.743397 0.743397
0.795719 0.795719 0.795719
0.848205 0.848205 0.848205
0.900847 0.900847 0.900847
0.953635 0.953635 0.953635
1.000000 1.000000 1.000000
1.000000 1.000000 1.000000
0.741476 0.741476 0.741476
0.793791 0.793791 0.793791
0.846272 0.846272 0.846272
0.898908 0.898908 0.898908
0.951691 0.951691 0.951691
1.000000 1.000000 1.000000
1.000000 1.000000 1.000000
1.000000 1.000000 1.000000
1.000000 1.000000 1.000000
0.000000 0.000000 0.000000
0.024609 0.024609 0.024609
0.070335 0.070335 0.070335
0.117647 0.117647 0.117647
0.165909 0.165909 0.165909
0.214857 0.214857 0.214857
0.264347 0.264347 0.264347
0.314285 0.314285 0.314285
0.364605 0.364605 0.364605
0.068619 0.068619 0.068619
0.115888 0.115888 0.115888
0.164120 0.164120 0.164120
0.213046 0.213046 0.213046
0.262518 0.262518 0.262518
0.312441 0.312441 0.312441
0.362748 0.362748 0.362748
0.413390 0.413390 0.413390
0.464330 0.464330 0.464330
0.162332 0.162332 0.162332
0.211236 0.211236 0.211236
0.260690 0.260690 0.260690
0.310597 0.310597 0.310597
0.360891 0.360891 0.360891
0.411521 0.411521 0.411521
0.462451 0.462451 0.462451
0.513650 0.513650 0.513650
0.565093 0.565093 0.565093
0.258862 0.258862 0.258862
0.308754 0.308754 0.308754
0.359034 0.359034 0.359034
0.409653 0.409653 0.409653
0.460572 0.460572 0.460572
0.511762 0.511762 0.511762
0.563196 0.563196 0.563196
0.614856 0.614856 0.614856
0.666723 0.666723 0.666723
0.357178 0.357178 0.357178
0.407785 0.407785 0.407785
0.458694 0.458694 0.458694
0.509874 0.509874 0.509874
0.561300 0.561300 0.561300
0.612952 0.612952 0.612952
0.664812 0.664812 0.664812
0.716865 0.716865 0.716865
0.769100 0.769100 0.769100
0.456816 0.456816 0.456816
0.507987 0.507987 0.507987
0.559404 0.559404 0.559404
0.611048 0.611048 0.611048
0.662900 0.662900 0.662900
0.714947 0.714947 0.714947
0.767175 0.767175 0.767175
0.819573 0.819573 0.819573
0.872131 0.872131 0.872131
0.557508 0.557508 0.557508
0.609144 0.609144 0.609144
0.660989 0.660989 0.660989
0.713029 0.713029 0.713029
0.765250 0.765250 0.765250
0.817642 0.817642 0.817642
0.870194 0.870194 0.870194
0.922898 0.922898 0.922898
0.975746 0.975746 0.975746
0.659078 0.659078 0.659078
0.711111 0.711111 0.711111
0.763326 0.763326 0.763326
0.815712 0.815712 0.815712
0.868258 0.868258 0.868258
0.920957 0.920957 0.920957
0.973799 0.973799 0.973799
1.000000 1.000000 1.000000
1.000000 1.000000 1.000000
0.761402 0.761402 0.761402
0.813782 0.813782 0.813782
0.866322 0.866322 0.866322
0.919015 0.919015 0.919015
0.971853 0.971853 0.971853
1.000000 1.000000 1.000000
1.000000 1.000000 1.000000
1.000000 1.000000 1.000000
1.000000 1.000000 1.000000
