CineCam/app/src/main/assets/luts/mono_contrast.cube
TITLE "CineCam Mono Contrast"
LUT_3D_SIZE 17
DOMAIN_MIN 0.0 0.0 0.0
DOMAIN_MAX 1.0 1.0 1.0
0.000000 0.000000 0.000000
0.000000 0.000000 0.000000
0.000000 0.000000 0.000000
0.000000 0.000000 0.000000
0.000000 0.000000 0.000000
0.000000 0.000000 0.000000
0.000000 0.000000 0.000000
0.001157 0.001157 0.001157
0.022385 0.022385 0.022385
0.044902 0.044902 0.044902
0.067995 0.067995 0.067995
0.091475 0.091475 0.091475
0.115248 0.115248 0.115248
0.139259 0.139259 0.139259
0.163470 0.163470 0.163470
0.187853 0.187853 0.187853
0.212388 0.212388 0.212388
0.000000 0.000000 0.000000
0.000000 0.000000 0.000000
0.000000 0.000000 0.000000
0.000000 0.000000 0.000000
0.000000 0.000000 0.000000
0.000464 0.000464 0.000464
0.021573 0.021573 0.021573
0.044062 0.044062 0.044062
0.067138 0.067138 0.067138
0.090605 0.090605 0.090605
0.114369 0.114369 0.114369
0.138372 0.138372 0.138372
0.162576 0.162576 0.162576
0.186953 0.186953 0.186953
0.211483 0.211483 0.211483
0.236149 0.236149 0.236149
0.260939 0.260939 0.260939
0.000000 0.000000 0.000000
0.000000 0.000000 0.000000
0.000000 0.000000 0.000000
0.000000 0.000000 0.000000
0.020762 0.020762 0.020762
0.043223 0.043223 0.043223
0.066281 0.066281 0.066281
0.089736 0.089736 0.089736
0.113490 0.113490 0.113490
0.137485 0.137485 0.137485
0.161682 0.161682 0.161682
0.186053 0.186053 0.186053
0.210578 0.210578 0.210578
0.235239 0.235239 0.235239
0.260025 0.260025 0.260025
0.284924 0.284924 0.284924
0.309927 0.309927 0.309927
0.000000 0.000000 0.000000
0.000000 0.000000 0.000000
0.019952 0.019952 0.019952
0.042384 0.042384 0.042384
0.065425 0.065425 0.065425
0.088868 0.088868 0.088868
0.112612 0.112612 0.112612
0.136599 0.136599 0.136599
0.160789 0.160789 0.160789
0.185154 0.185154 0.185154
0.209673 0.209673 0.209673
0.234330 0.234330 0.234330
0.259111 0.259111 0.259111
0.284006 0.284006 0.284006
0.309005 0.309005 0.309005
0.334101 0.334101 0.334101
0.359287 0.359287 0.359287
0.019144 0.019144 0.019144
0.041546 0.041546 0.041546
0.064570 0.064570 0.064570
0.088000 0.088000 0.088000
0.111734 0.111734 0.111734
0.135712 0.135712 0.135712
0.159895 0.159895 0.159895
0.184255 0.184255 0.184255
0.208768 0.208768 0.208768
0.233421 0.233421 0.233421
0.258197 0.258197 0.258197
0.283088 0.283088 0.283088
0.308084 0.308084 0.308084
0.333176 0.333176 0.333176
0.358359 0.358359 0.358359
0.383627 0.383627 0.383627
0.408974 0.408974 0.408974
0.063715 0.063715 0.063715
0.087132 0.087132 0.087132
0.110856 0.110856 0.110856
0.134826 0.134826 0.134826
0.159003 0.159003 0.159003
0.183356 0.183356 0.183356
0.207864 0.207864 0.207864
0.232511 0.232511 0.232511
0.257284 0.257284 0.257284
0.282170 0.282170 0.282170
0.307162 0.307162 0.307162
0.332251 0.332251 0.332251
0.357431 0.357431 0.357431
0.382696 0.382696 0.382696
0.408040 0.408040 0.408040
0.433460 0.433460 0.433460
0.458950 0.458950 0.458950
0.109979 0.109979 0.109979
0.133941 0.133941 0.133941
0.158110 0.158110 0.158110
0.182457 0.182457 0.182457
0.206960 0.206960 0.206960
0.231602 0.231602 0.231602
0.256370 0.256370 0.256370
0.281253 0.281253 0.281253
0.306241 0.306241 0.306241
0.331327 0.331327 0.331327
0.356503 0.356503 0.356503
0.381765 0.381765 0.381765
0.407106 0.407106 0.407106
0.432523 0.432523 0.432523
0.458011 0.458011 0.458011
0.483567 0.483567 0.483567
0.509188 0.509188 0.509188
0.157217 0.157217 0.157217
0.181558 0.181558 0.181558
0.206056 0.206056 0.206056
0.230693 0.230693 0.230693
0.255457 0.255457 0.255457
0.280336 0.280336 0.280336
0.305320 0.305320 0.305320
0.330402 0.330402 0.330402
0.355576 0.355576 0.355576
0.380834 0.380834 0.380834
0.406173 0.406173 0.406173
0.431587 0.431587 0.431587
0.457072 0.457072 0.457072
0.482626 0.482626 0.482626
0.508244 0.508244 0.508244
0.533924 0.533924 0.533924
0.559663 0.559663 0.559663
0.205152 0.205152 0.205152
0.229785 0.229785 0.229785
0.254544 0.254544 0.254544
0.279418 0.279418 0.279418
0.304399 0.304399 0.304399
0.329478 0.329478 0.329478
0.354648 0.354648 0.354648
0.379903 0.379903 0.379903
0.405239 0.405239 0.405239
0.430650 0.430650 0.430650
0.456134 0.456134 0.456134
0.481685 0.481685 0.481685
0.507300 0.507300 0.507300
0.532978 0.532978 0.532978
0.558715 0.558715 0.558715
0.584508 0.584508 0.584508
0.610355 0.610355 0.610355
0.253631 0.253631 0.253631
0.278501 0.278501 0.278501
0.303478 0.303478 0.303478
0.328554 0.328554 0.328554
0.353720 0.353720 0.353720
0.378973 0.378973 0.378973
0.404306 0.404306 0.404306
0.429714 0.429714 0.429714
0.455195 0.455195 0.455195
0.480743 0.480743 0.480743
0.506357 0.506357 0.506357
0.532032 0.532032 0.532032
0.557767 0.557767 0.557767
0.583558 0.583558 0.583558
0.609404 0.609404 0.609404
0.635301 0.635301 0.635301
0.661250 0.661250 0.661250
0.302558 0.302558 0.302558
0.327629 0.327629 0.327629
0.352793 0.352793 0.352793
0.378042 0.378042 0.378042
0.403372 0.403372 0.403372
0.428778 0.428778 0.428778
0.454256 0.454256 0.454256
0.479802 0.479802 0.479802
0.505413 0.505413 0.505413
0.531087 0.531087 0.531087
0.556819 0.556819 0.556819
0.582608 0.582608 0.582608
0.608452 0.608452 0.608452
0.634348 0.634348 0.634348
0.660294 0.660294 0.660294
0.686289 0.686289 0.686289
0.712332 0.712332 0.712332
0.351866 0.351866 0.351866
0.377112 0.377112 0.377112
0.402439 0.402439 0.402439
0.427842 0.427842 0.427842
0.453318 0.453318 0.453318
0.478861 0.478861 0.478861
0.504470 0.504470 0.504470
0.530141 0.530141 0.530141
0.555871 0.555871 0.555871
0.581658 0.581658 0.581658
0.607500 0.607500 0.607500
0.633394 0.633394 0.633394
0.659339 0.659339 0.659339
0.685332 0.685332 0.685332
0.711373 0.711373 0.711373
0.737459 0.737459 0.737459
0.763589 0.763589 0.763589
0.401506 0.401506 0.401506
0.426906 0.426906 0.426906
0.452379 0.452379 0.452379
0.477920 0.477920 0.477920
0.503527 0.503527 0.503527
0.529196 0.529196 0.529196
0.554924 0.554924 0.554924
0.580709 0.580709 0.580709
0.606548 0.606548 0.606548
0.632441 0.632441 0.632441
0.658384 0.658384 0.658384
0.684375 0.684375 0.684375
0.710414 0.710414 0.710414
0.736498 0.736498 0.736498
0.762626 0.762626 0.762626
0.788797 0.788797 0.788797
0.815010 0.815010 0.815010
0.451441 0.451441 0.451441
0.476980 0.476980 0.476980
0.502584 0.502584 0.502584
0.528250 0.528250 0.528250
0.553976 0.553976 0.553976
0.579759 0.579759 0.579759
0.605597 0.605597 0.605597
0.631487 0.631487 0.631487
0.657428 0.657428 0.657428
0.683418 0.683418 0.683418
0.709455 0.709455 0.709455
0.735538 0.735538 0.735538
0.761664 0.761664 0.761664
0.787834 0.787834 0.787834
0.814045 0.814045 0.814045
0.840296 0.840296 0.840296
0.866586 0.866586 0.866586
0.501641 0.501641 0.501641
0.527305 0.527305 0.527305
0.553029 0.553029 0.553029
0.578810 0.578810 0.578810
0.604645 0.604645 0.604645
0.630534 0.630534 0.630534
0.656473 0.656473 0.656473
0.682461 0.682461 0.682461
0.708496 0.708496 0.708496
0.734577 0.734577 0.734577
0.760702 0.760702 0.760702
0.786870 0.786870 0.786870
0.813080 0.813080 0.813080
0.839330 0.839330 0.839330
0.865619 0.865619 0.865619
0.891946 0.891946 0.891946
0.918310 0.918310 0.918310
0.552081 0.552081 0.552081
0.577860 0.577860 0.577860
0.603694 0.603694 0.603694
0.629580 0.629580 0.629580
0.655518 0.655518 0.655518
0.681504 0.681504 0.681504
0.707538 0.707538 0.707538
0.733617 0.733617 0.733617
0.759741 0.759741 0.759741
0.785907 0.785907 0.785907
0.812115 0.812115 0.812115
0.838363 0.838363 0.838363
0.864651 0.864651 0.864651
0.890976 0.890976 0.890976
0.917339 0.917339 0.917339
0.943738 0.943738 0.943738
0.970172 0.970172 0.970172
0.602743 0.602743 0.602743
0.628627 0.628627 0.628627
0.654563 0.654563 0.654563
0.680547 0.680547 0.680547
0.706579 0.706579 0.706579
0.732657 0.732657 0.732657
0.758779 0.758779 0.758779
0.784944 0.784944 0.784944
0.811150 0.811150 0.811150
0.837397 0.837397 0.837397
0.863683 0.863683 0.863683
0.890007 0.890007 0.890007
0.916368 0.916368 0.916368
0.942766 0.942766 0.942766
0.969199 0.969199 0.969199
0.995666 0.995666 0.995666
1.000000 1.000000 1.000000
0.000000 0.000000 0.000000
0.000000 0.000000 0.000000
0.000000 0.000000 0.000000
0.000000 0.000000 0.000000
0.000000 0.000000 0.000000
0.000000 0.000000 0.000000
0.000000 0.000000 0.000000
0.008960 0.008960 0.008960
0.030882 0.030882 0.030882
0.053653 0.053653 0.053653
0.076908 0.076908 0.076908
0.100508 0.100508 0.100508
0.124377 0.124377 0.124377
0.148468 0.148468 0.148468
0.172747 0.172747 0.172747
0.197190 0.197190 0.197190
0.221779 0.221779 0.221779
0.000000 0.000000 0.000000
0.000000 0.000000 0.000000
0.000000 0.000000 0.000000
0.000000 0.000000 0.000000
0.000000 0.000000 0.000000
0.008183 0.008183 0.008183
0.030057 0.030057 0.030057
0.052805 0.052805 0.052805
0.076046 0.076046 0.076046
0.099635 0.099635 0.099635
0.123495 0.123495 0.123495
0.147578 0.147578 0.147578
0.171851 0.171851 0.171851
0.196288 0.196288 0.196288
0.220872 0.220872 0.220872
0.245587 0.245587 0.245587
0.270421 0.270421 0.270421
0.000000 0.000000 0.000000
0.000000 0.000000 0.000000
0.000000 0.000000 0.000000
0.007410 0.007410 0.007410
0.029232 0.029232 0.029232
0.051958 0.051958 0.051958
0.075184 0.075184 0.075184
0.098762 0.098762 0.098762
0.122613 0.122613 0.122613
0.146689 0.146689 0.146689
0.170955 0.170955 0.170955
0.195387 0.195387 0.195387
0.219965 0.219965 0.219965
0.244675 0.244675 0.244675
0.269505 0.269505 0.269505
0.294445 0.294445 0.294445
0.319485 0.319485 0.319485
0.000000 0.000000 0.000000
0.006640 0.006640 0.006640
0.028409 0.028409 0.028409
0.051112 0.051112 0.051112
0.074323 0.074323 0.074323
0.097889 0.097889 0.097889
0.121731 0.121731 0.121731
0.145799 0.145799 0.145799
0.170059 0.170059 0.170059
0.194485 0.194485 0.194485
0.219059 0.219059 0.219059
0.243764 0.243764 0.243764
0.268590 0.268590 0.268590
0.293525 0.293525 0.293525
0.318562 0.318562 0.318562
0.343694 0.343694 0.343694
0.368913 0.368913 0.368913
0.027587 0.027587 0.027587
0.050267 0.050267 0.050267
0.073462 0.073462 0.073462
0.097017 0.097017 0.097017
0.120850 0.120850 0.120850
0.144910 0.144910 0.144910
0.169163 0.169163 0.169163
0.193584 0.193584 0.193584
0.218152 0.218152 0.218152
0.242853 0.242853 0.242853
0.267675 0.267675 0.267675
0.292606 0.292606 0.292606
0.317640 0.317640 0.317640
0.342767 0.342767 0.342767
0.367983 0.367983 0.367983
0.393282 0.393282 0.393282
0.418658 0.418658 0.418658
0.072601 0.072601 0.072601
0.096145 0.096145 0.096145
0.119969 0.119969 0.119969
0.144022 0.144022 0.144022
0.168268 0.168268 0.168268
0.192683 0.192683 0.192683
0.217246 0.217246 0.217246
0.241942 0.241942 0.241942
0.266759 0.266759 0.266759
0.291687 0.291687 0.291687
0.316717 0.316717 0.316717
0.341841 0.341841 0.341841
0.367054 0.367054 0.367054
0.392350 0.392350 0.392350
0.417723 0.417723 0.417723
0.443170 0.443170 0.443170
0.468687 0.468687 0.468687
0.119088 0.119088 0.119088
0.143133 0.143133 0.143133
0.167373 0.167373 0.167373
0.191782 0.191782 0.191782
0.216340 0.216340 0.216340
0.241031 0.241031 0.241031
0.265844 0.265844 0.265844
0.290768 0.290768 0.290768
0.315794 0.315794 0.315794
0.340915 0.340915 0.340915
0.366125 0.366125 0.366125
0.391418 0.391418 0.391418
0.416788 0.416788 0.416788
0.442233 0.442233 0.442233
0.467747 0.467747 0.467747
0.493328 0.493328 0.493328
0.518972 0.518972 0.518972
0.166478 0.166478 0.166478
0.190881 0.190881 0.190881
0.215434 0.215434 0.215434
0.240121 0.240121 0.240121
0.264929 0.264929 0.264929
0.289849 0.289849 0.289849
0.314872 0.314872 0.314872
0.339990 0.339990 0.339990
0.365196 0.365196 0.365196
0.390486 0.390486 0.390486
0.415854 0.415854 0.415854
0.441295 0.441295 0.441295
0.466807 0.466807 0.466807
0.492386 0.492386 0.492386
0.518028 0.518028 0.518028
0.543730 0.543730 0.543730
0.569491 0.569491 0.569491
0.214528 0.214528 0.214528
0.239210 0.239210 0.239210
0.264015 0.264015 0.264015
0.288931 0.288931 0.288931
0.313950 0.313950 0.313950
0.339064 0.339064 0.339064
0.364267 0.364267 0.364267
0.389554 0.389554 0.389554
0.414919 0.414919 0.414919
0.440358 0.440358 0.440358
0.465868 0.465868 0.465868
0.491444 0.491444 0.491444
0.517083 0.517083 0.517083
0.542784 0.542784 0.542784
0.568542 0.568542 0.568542
0.594356 0.594356 0.594356
0.620224 0.620224 0.620224
0.263100 0.263100 0.263100
0.288012 0.288012 0.288012
0.313028 0.313028 0.313028
0.338138 0.338138 0.338138
0.363339 0.363339 0.363339
0.388622 0.388622 0.388622
0.413984 0.413984 0.413984
0.439421 0.439421 0.439421
0.464928 0.464928 0.464928
0.490502 0.490502 0.490502
0.516139 0.516139 0.516139
0.541837 0.541837 0.541837
0.567594 0.567594 0.567594
0.593406 0.593406 0.593406
0.619272 0.619272 0.619272
0.645189 0.645189 0.645189
0.671156 0.671156 0.671156
0.312106 0.312106 0.312106
0.337213 0.337213 0.337213
0.362410 0.362410 0.362410
0.387691 0.387691 0.387691
0.413050 0.413050 0.413050
0.438484 0.438484 0.438484
0.463988 0.463988 0.463988
0.489560 0.489560 0.489560
0.515195 0.515195 0.515195
0.540891 0.540891 0.540891
0.566645 0.566645 0.566645
0.592455 0.592455 0.592455
0.618319 0.618319 0.618319
0.644235 0.644235 0.644235
0.670200 0.670200 0.670200
0.696213 0.696213 0.696213
0.722273 0.722273 0.722273
0.361481 0.361481 0.361481
0.386759 0.386759 0.386759
0.412116 0.412116 0.412116
0.437547 0.437547 0.437547
0.463049 0.463049 0.463049
0.488618 0.488618 0.488618
0.514251 0.514251 0.514251
0.539944 0.539944 0.539944
0.565697 0.565697 0.565697
0.591505 0.591505 0.591505
0.617367 0.617367 0.617367
0.643280 0.643280 0.643280
0.669244 0.669244 0.669244
0.695255 0.695255 0.695255
0.721313 0.721313 0.721313
0.747416 0.747416 0.747416
0.773562 0.773562 0.773562
0.411182 0.411182 0.411182
0.436610 0.436610 0.436610
0.462109 0.462109 0.462109
0.487676 0.487676 0.487676
0.513306 0.513306 0.513306
0.538998 0.538998 0.538998
0.564748 0.564748 0.564748
0.590554 0.590554 0.590554
0.616414 0.616414 0.616414
0.642326 0.642326 0.642326
0.668288 0.668288 0.668288
0.694297 0.694297 0.694297
0.720354 0.720354 0.720354
0.746455 0.746455 0.746455
0.772600 0.772600 0.772600
0.798787 0.798787 0.798787
0.825015 0.825015 0.825015
0.461170 0.461170 0.461170
0.486734 0.486734 0.486734
0.512362 0.512362 0.512362
0.538052 0.538052 0.538052
0.563800 0.563800 0.563800
0.589604 0.589604 0.589604
0.615462 0.615462 0.615462
0.641372 0.641372 0.641372
0.667332 0.667332 0.667332
0.693340 0.693340 0.693340
0.719394 0.719394 0.719394
0.745494 0.745494 0.745494
0.771637 0.771637 0.771637
0.797823 0.797823 0.797823
0.824049 0.824049 0.824049
0.850315 0.850315 0.850315
0.876620 0.876620 0.876620
0.511418 0.511418 0.511418
0.537106 0.537106 0.537106
0.562852 0.562852 0.562852
0.588654 0.588654 0.588654
0.614510 0.614510 0.614510
0.640418 0.640418 0.640418
0.666376 0.666376 0.666376
0.692382 0.692382 0.692382
0.718435 0.718435 0.718435
0.744533 0.744533 0.744533
0.770675 0.770675 0.770675
0.796858 0.796858 0.796858
0.823083 0.823083 0.823083
0.849348 0.849348 0.849348
0.875652 0.875652 0.875652
0.901993 0.901993 0.901993
0.928371 0.928371 0.928371
0.561903 0.561903 0.561903
0.587703 0.587703 0.587703
0.613558 0.613558 0.613558
0.639464 0.639464 0.639464
0.665420 0.665420 0.665420
0.691425 0.691425 0.691425
0.717476 0.717476 0.717476
0.743572 0.743572 0.743572
0.769712 0.769712 0.769712
0.795894 0.795894 0.795894
0.822118 0.822118 0.822118
0.848381 0.848381 0.848381
0.874683 0.874683 0.874683
0.901023 0.901023 0.901023
0.927400 0.927400 0.927400
0.953812 0.953812 0.953812
0.980259 0.980259 0.980259
0.612606 0.612606 0.612606
0.638510 0.638510 0.638510
0.664464 0.664464 0.664464
0.690467 0.690467 0.690467
0.716517 0.716517 0.716517
0.742611 0.742611 0.742611
0.768750 0.768750 0.768750
0.794931 0.794931 0.794931
0.821152 0.821152 0.821152
0.847414 0.847414 0.847414
0.873715 0.873715 0.873715
0.900054 0.900054 0.900054
0.926429 0.926429 0.926429
0.952840 0.952840 0.952840
0.979286 0.979286 0.979286
1.000000 1.000000 1.000000
1.000000 1.000000 1.000000
0.000000 0.000000 0.000000
0.000000 0.000000 0.000000
0.000000 0.000000 0.000000
0.000000 0.000000 0.000000
0.000000 0.000000 0.000000
0.000000 0.000000 0.000000
0.000000 0.000000 0.000000
0.017168 0.017168 0.017168
0.039493 0.039493 0.039493
0.062472 0.062472 0.062472
0.085870 0.085870 0.085870
0.109580 0.109580 0.109580
0.133538 0.133538 0.133538
0.157704 0.157704 0.157704
0.182048 0.182048 0.182048
0.206549 0.206549 0.206549
0.231189 0.231189 0.231189
0.000000 0.000000 0.000000
0.000000 0.000000 0.000000
0.000000 0.000000 0.000000
0.000000 0.000000 0.000000
0.000000 0.000000 0.000000
0.016366 0.016366 0.016366
0.038657 0.038657 0.038657
0.061618 0.061618 0.061618
0.085003 0.085003 0.085003
0.108703 0.108703 0.108703
0.132653 0.132653 0.132653
0.156812 0.156812 0.156812
0.181150 0.181150 0.181150
0.205645 0.205645 0.205645
0.230280 0.230280 0.230280
0.255042 0.255042 0.255042
0.279919 0.279919 0.279919
0.000000 0.000000 0.000000
0.000000 0.000000 0.000000
0.000000 0.000000 0.000000
0.015566 0.015566 0.015566
0.037823 0.037823 0.037823
0.060765 0.060765 0.060765
0.084137 0.084137 0.084137
0.107826 0.107826 0.107826
0.131768 0.131768 0.131768
0.155920 0.155920 0.155920
0.180252 0.180252 0.180252
0.204741 0.204741 0.204741
0.229372 0.229372 0.229372
0.254129 0.254129 0.254129
0.279002 0.279002 0.279002
0.303981 0.303981 0.303981
0.329058 0.329058 0.329058
0.000000 0.000000 0.000000
0.014767 0.014767 0.014767
0.036990 0.036990 0.036990
0.059912 0.059912 0.059912
0.083271 0.083271 0.083271
0.106950 0.106950 0.106950
0.130883 0.130883 0.130883
0.155028 0.155028 0.155028
0.179353 0.179353 0.179353
0.203838 0.203838 0.203838
0.228463 0.228463 0.228463
0.253216 0.253216 0.253216
0.278085 0.278085 0.278085
0.303060 0.303060 0.303060
0.328133 0.328133 0.328133
0.353299 0.353299 0.353299
0.378550 0.378550 0.378550
0.036157 0.036157 0.036157
0.059060 0.059060 0.059060
0.082405 0.082405 0.082405
0.106074 0.106074 0.106074
0.129999 0.129999 0.129999
0.154136 0.154136 0.154136
0.178456 0.178456 0.178456
0.202934 0.202934 0.202934
0.227555 0.227555 0.227555
0.252303 0.252303 0.252303
0.277168 0.277168 0.277168
0.302139 0.302139 0.302139
0.327209 0.327209 0.327209
0.352371 0.352371 0.352371
0.377619 0.377619 0.377619
0.402948 0.402948 0.402948
0.428353 0.428353 0.428353
0.081540 0.081540 0.081540
0.105198 0.105198 0.105198
0.129115 0.129115 0.129115
0.153245 0.153245 0.153245
0.177558 0.177558 0.177558
0.202031 0.202031 0.202031
0.226647 0.226647 0.226647
0.251391 0.251391 0.251391
0.276251 0.276251 0.276251
0.301219 0.301219 0.301219
0.326285 0.326285 0.326285
0.351444 0.351444 0.351444
0.376689 0.376689 0.376689
0.402015 0.402015 0.402015
0.427417 0.427417 0.427417
0.452891 0.452891 0.452891
0.478434 0.478434 0.478434
0.128231 0.128231 0.128231
0.152354 0.152354 0.152354
0.176661 0.176661 0.176661
0.201128 0.201128 0.201128
0.225739 0.225739 0.225739
0.250478 0.250478 0.250478
0.275335 0.275335 0.275335
0.300298 0.300298 0.300298
0.325362 0.325362 0.325362
0.350517 0.350517 0.350517
0.375759 0.375759 0.375759
0.401082 0.401082 0.401082
0.426481 0.426481 0.426481
0.451953 0.451953 0.451953
0.477493 0.477493 0.477493
0.503098 0.503098 0.503098
0.528766 0.528766 0.528766
0.175763 0.175763 0.175763
0.200225 0.200225 0.200225
0.224831 0.224831 0.224831
0.249566 0.249566 0.249566
0.274418 0.274418 0.274418
0.299378 0.299378 0.299378
0.324438 0.324438 0.324438
0.349590 0.349590 0.349590
0.374829 0.374829 0.374829
0.400149 0.400149 0.400149
0.425545 0.425545 0.425545
0.451014 0.451014 0.451014
0.476552 0.476552 0.476552
0.502155 0.502155 0.502155
0.527820 0.527820 0.527820
0.553545 0.553545 0.553545
0.579328 0.579328 0.579328
0.223924 0.223924 0.223924
0.248654 0.248654 0.248654
0.273502 0.273502 0.273502
0.298458 0.298458 0.298458
0.323514 0.323514 0.323514
0.348663 0.348663 0.348663
0.373899 0.373899 0.373899
0.399216 0.399216 0.399216
0.424610 0.424610 0.424610
0.450076 0.450076 0.450076
0.475611 0.475611 0.475611
0.501212 0.501212 0.501212
0.526875 0.526875 0.526875
0.552598 0.552598 0.552598
0.578378 0.578378 0.578378
0.604213 0.604213 0.604213
0.630100 0.630100 0.630100
0.272586 0.272586 0.272586
0.297538 0.297538 0.297538
0.322591 0.322591 0.322591
0.347736 0.347736 0.347736
0.372969 0.372969 0.372969
0.398283 0.398283 0.398283
0.423674 0.423674 0.423674
0.449138 0.449138 0.449138
0.474671 0.474671 0.474671
0.500269 0.500269 0.500269
0.525930 0.525930 0.525930
0.551651 0.551651 0.551651
0.577429 0.577429 0.577429
0.603262 0.603262 0.603262
0.629147 0.629147 0.629147
0.655084 0.655084 0.655084
0.681069 0.681069 0.681069
0.321667 0.321667 0.321667
0.346810 0.346810 0.346810
0.372039 0.372039 0.372039
0.397350 0.397350 0.397350
0.422739 0.422739 0.422739
0.448200 0.448200 0.448200
0.473730 0.473730 0.473730
0.499326 0.499326 0.499326
0.524985 0.524985 0.524985
0.550703 0.550703 0.550703
0.576479 0.576479 0.576479
0.602310 0.602310 0.602310
0.628194 0.628194 0.628194
0.654129 0.654129 0.654129
0.680112 0.680112 0.680112
0.706143 0.706143 0.706143
0.732220 0.732220 0.732220
0.371109 0.371109 0.371109
0.396418 0.396418 0.396418
0.421803 0.421803 0.421803
0.447262 0.447262 0.447262
0.472790 0.472790 0.472790
0.498383 0.498383 0.498383
0.524040 0.524040 0.524040
0.549756 0.549756 0.549756
0.575530 0.575530 0.575530
0.601359 0.601359 0.601359
0.627241 0.627241 0.627241
0.653174 0.653174 0.653174
0.679156 0.679156 0.679156
0.705185 0.705185 0.705185
0.731260 0.731260 0.731260
0.757380 0.757380 0.757380
0.783542 0.783542 0.783542
0.420868 0.420868 0.420868
0.446324 0.446324 0.446324
0.471849 0.471849 0.471849
0.497441 0.497441 0.497441
0.523095 0.523095 0.523095
0.548809 0.548809 0.548809
0.574581 0.574581 0.574581
0.600408 0.600408 0.600408
0.626288 0.626288 0.626288
0.652219 0.652219 0.652219
0.678199 0.678199 0.678199
0.704227 0.704227 0.704227
0.730300 0.730300 0.730300
0.756418 0.756418 0.756418
0.782579 0.782579 0.782579
0.808782 0.808782 0.808782
0.835025 0.835025 0.835025
0.470909 0.470909 0.470909
0.496498 0.496498 0.496498
0.522150 0.522150 0.522150
0.547862 0.547862 0.547862
0.573632 0.573632 0.573632
0.599457 0.599457 0.599457
0.625335 0.625335 0.625335
0.651264 0.651264 0.651264
0.677242 0.677242 0.677242
0.703268 0.703268 0.703268
0.729340 0.729340 0.729340
0.755457 0.755457 0.755457
0.781616 0.781616 0.781616
0.807817 0.807817 0.807817
0.834059 0.834059 0.834059
0.860340 0.860340 0.860340
0.886660 0.886660 0.886660
0.521205 0.521205 0.521205
0.546915 0.546915 0.546915
0.572683 0.572683 0.572683
0.598506 0.598506 0.598506
0.624382 0.624382 0.624382
0.650309 0.650309 0.650309
0.676286 0.676286 0.676286
0.702310 0.702310 0.702310
0.728380 0.728380 0.728380
0.754495 0.754495 0.754495
0.780653 0.780653 0.780653
0.806853 0.806853 0.806853
0.833093 0.833093 0.833093
0.859373 0.859373 0.859373
0.885691 0.885691 0.885691
0.912046 0.912046 0.912046
0.938438 0.938438 0.938438
0.571734 0.571734 0.571734
0.597555 0.597555 0.597555
0.623429 0.623429 0.623429
0.649354 0.649354 0.649354
0.675329 0.675329 0.675329
0.701352 0.701352 0.701352
0.727420 0.727420 0.727420
0.753533 0.753533 0.753533
0.779690 0.779690 0.779690
0.805888 0.805888 0.805888
0.832127 0.832127 0.832127
0.858405 0.858405 0.858405
0.884722 0.884722 0.884722
0.911076 0.911076 0.911076
0.937466 0.937466 0.937466
0.963892 0.963892 0.963892
0.990352 0.990352 0.990352
0.622476 0.622476 0.622476
0.648400 0.648400 0.648400
0.674373 0.674373 0.674373
0.700393 0.700393 0.700393
0.726460 0.726460 0.726460
0.752572 0.752572 0.752572
0.778727 0.778727 0.778727
0.804923 0.804923 0.804923
0.831161 0.831161 0.831161
0.857438 0.857438 0.857438
0.883753 0.883753 0.883753
0.910105 0.910105 0.910105
0.936494 0.936494 0.936494
0.962919 0.962919 0.962919
0.989378 0.989378 0.989378
1.000000 1.000000 1.000000
1.000000 1.000000 1.000000
0.000000 0.000000 0.000000
0.000000 0.000000 0.000000
0.000000 0.000000 0.000000
0.000000 0.000000 0.000000
0.000000 0.000000 0.000000
0.000000 0.000000 0.000000
0.004018 0.004018 0.004018
0.025575 0.025575 0.025575
0.048194 0.048194 0.048194
0.071351 0.071351 0.071351
0.094877 0.094877 0.094877
0.118688 0.118688 0.118688
0.142729 0.142729 0.142729
0.166966 0.166966 0.166966
0.191372 0.191372 0.191372
0.215928 0.215928 0.215928
0.240617 0.240617 0.240617
0.000000 0.000000 0.000000
