CineCam/app/src/main/assets/luts/teal_orange.cube
TITLE "CineCam Teal & Orange"
LUT_3D_SIZE 9
DOMAIN_MIN 0.0 0.0 0.0
DOMAIN_MAX 1.0 1.0 1.0
0.000000 0.015000 0.050000
0.021740 0.014103 0.047010
0.168480 0.013206 0.044020
0.315220 0.012309 0.041030
0.461960 0.011412 0.038040
0.608700 0.010515 0.035050
0.755440 0.009618 0.032060
0.902180 0.008721 0.029070
0.973920 0.007824 0.026080
0.000000 0.081989 0.044130
0.027610 0.081092 0.041140
0.174350 0.080195 0.038150
0.321090 0.079298 0.035160
0.467830 0.078401 0.032170
0.614570 0.077504 0.029180
0.761310 0.076607 0.026190
0.908050 0.075710 0.023200
0.979790 0.074813 0.020210
0.000000 0.223978 0.038260
0.033480 0.223081 0.035270
0.180220 0.222184 0.032280
0.326960 0.221287 0.029290
0.473700 0.220390 0.026300
0.620440 0.219493 0.023310
0.767180 0.218596 0.020320
0.913920 0.217699 0.017330
0.985660 0.216802 0.014340
0.000000 0.365967 0.032390
0.039350 0.365070 0.029400
0.186090 0.364173 0.026410
0.332830 0.363276 0.023420
0.479570 0.362379 0.020430
0.626310 0.361482 0.017440
0.773050 0.360585 0.014450
0.923254 0.361131 0.007996
0.999071 0.361933 0.000929
0.000000 0.507956 0.026520
0.045220 0.507059 0.023530
0.191960 0.506162 0.020540
0.338700 0.505265 0.017550
0.485440 0.504368 0.014560
0.635494 0.504852 0.008256
0.786311 0.505654 0.001189
0.937128 0.506455 0.000000
1.000000 0.507257 0.000000
0.000000 0.649945 0.020650
0.051090 0.649048 0.017660
0.197830 0.648151 0.014670
0.347734 0.648572 0.008516
0.498551 0.649374 0.001449
0.649368 0.650176 0.000000
0.800185 0.650978 0.000000
0.950723 0.651864 0.000000
1.000000 0.653563 0.000000
0.000000 0.791934 0.014780
0.059974 0.792293 0.008776
0.210791 0.793095 0.001709
0.361608 0.793896 0.000000
0.512425 0.794698 0.000000
0.663073 0.795551 0.000000
0.810900 0.797250 0.000000
0.958727 0.798949 0.000000
1.000000 0.800648 0.000000
0.000000 0.936815 0.001969
0.073848 0.937617 0.000000
0.224665 0.938419 0.000000
0.375423 0.939239 0.000000
0.523250 0.940937 0.000000
0.671077 0.942636 0.000000
0.818905 0.944335 0.000000
0.966732 0.946034 0.000000
1.000000 0.947733 0.000000
0.011905 1.000000 0.000000
0.087723 1.000000 0.000000
0.235600 1.000000 0.000000
0.383427 1.000000 0.000000
0.531255 1.000000 0.000000
0.679082 1.000000 0.000000
0.826909 1.000000 0.000000
0.974736 1.000000 0.000000
1.000000 1.000000 0.000000
0.000000 0.014658 0.117610
0.022880 0.013761 0.114620
0.169620 0.012864 0.111630
0.316360 0.011967 0.108640
0.463100 0.011070 0.105650
0.609840 0.010173 0.102660
0.756580 0.009276 0.099670
0.903320 0.008379 0.096680
0.975060 0.007482 0.093690
0.000000 0.081647 0.111740
0.028750 0.080750 0.108750
0.175490 0.079853 0.105760
0.322230 0.078956 0.102770
0.468970 0.078059 0.099780
0.615710 0.077162 0.096790
0.762450 0.076265 0.093800
0.909190 0.075368 0.090810
0.980930 0.074471 0.087820
0.000000 0.223636 0.105870
0.034620 0.222739 0.102880
0.181360 0.221842 0.099890
0.328100 0.220945 0.096900
0.474840 0.220048 0.093910
0.621580 0.219151 0.090920
0.768320 0.218254 0.087930
0.915060 0.217357 0.084940
0.987891 0.216915 0.080859
0.000000 0.365625 0.100000
0.040490 0.364728 0.097010
0.187230 0.363831 0.094020
0.333970 0.362934 0.091030
0.480710 0.362037 0.088040
0.627450 0.361140 0.085050
0.775131 0.360635 0.081119
0.925948 0.361437 0.074052
1.000000 0.362239 0.066985
0.000000 0.507614 0.094130
0.046360 0.506717 0.091140
0.193100 0.505820 0.088150
0.339840 0.504923 0.085160
0.487371 0.504356 0.081379
0.638188 0.505157 0.074312
0.789005 0.505959 0.067245
0.939823 0.506761 0.060177
1.000000 0.507563 0.053110
0.000000 0.649603 0.088260
0.052230 0.648706 0.085270
0.199611 0.648076 0.081639
0.350428 0.648878 0.074572
0.501245 0.649680 0.067505
0.652063 0.650482 0.060437
0.802880 0.651284 0.053370
0.952277 0.652511 0.047723
1.000000 0.654210 0.043645
0.000000 0.791797 0.081899
0.062668 0.792598 0.074832
0.213485 0.793400 0.067765
0.364303 0.794202 0.060697
0.515120 0.795004 0.053630
0.664627 0.796199 0.047873
0.812455 0.797898 0.043795
0.960282 0.799597 0.039718
1.000000 0.801295 0.035641
0.000725 0.937121 0.068025
0.076543 0.937923 0.060957
0.227360 0.938724 0.053890
0.376977 0.939886 0.048023
0.524805 0.941585 0.043945
0.672632 0.943284 0.039868
0.820459 0.944983 0.035791
0.968286 0.946682 0.031714
1.000000 0.948381 0.027636
0.014600 1.000000 0.054150
0.089327 1.000000 0.048173
0.237155 1.000000 0.044095
0.384982 1.000000 0.040018
0.532809 1.000000 0.035941
0.680636 1.000000 0.031864
0.828464 1.000000 0.027786
0.976291 1.000000 0.023709
1.000000 1.000000 0.019632
0.000000 0.014316 0.260220
0.024020 0.013419 0.257230
0.170760 0.012522 0.254240
0.317500 0.011625 0.251250
0.464240 0.010728 0.248260
0.610980 0.009831 0.245270
0.757720 0.008934 0.242280
0.904460 0.008037 0.239290
0.976200 0.007140 0.236300
0.000000 0.081305 0.254350
0.029890 0.080408 0.251360
0.176630 0.079511 0.248370
0.323370 0.078614 0.245380
0.470110 0.077717 0.242390
0.616850 0.076820 0.239400
0.763590 0.075923 0.236410
0.910330 0.075026 0.233420
0.982070 0.074129 0.230430
0.000000 0.223294 0.248480
0.035760 0.222397 0.245490
0.182500 0.221500 0.242500
0.329240 0.220603 0.239510
0.475980 0.219706 0.236520
0.622720 0.218809 0.233530
0.769460 0.217912 0.230540
0.916200 0.217015 0.227550
0.990585 0.217220 0.221915
0.000000 0.365283 0.242610
0.041630 0.364386 0.239620
0.188370 0.363489 0.236630
0.335110 0.362592 0.233640
0.481850 0.361695 0.230650
0.628590 0.360798 0.227660
0.777825 0.360941 0.222175
0.928643 0.361743 0.215107
1.000000 0.362544 0.208040
0.000000 0.507272 0.236740
0.047500 0.506375 0.233750
0.194240 0.505478 0.230760
0.340980 0.504581 0.227770
0.490065 0.504661 0.222435
0.640883 0.505463 0.215367
0.791700 0.506265 0.208300
0.942517 0.507067 0.201233
1.000000 0.507869 0.194165
0.000000 0.649261 0.230870
0.053370 0.648364 0.227880
0.202305 0.648382 0.222695
0.353123 0.649184 0.215627
0.503940 0.649985 0.208560
0.654757 0.650787 0.201493
0.805575 0.651589 0.194425
0.953832 0.653159 0.189918
1.000000 0.654858 0.185841
0.000000 0.792102 0.222955
0.065363 0.792904 0.215887
0.216180 0.793706 0.208820
0.366997 0.794508 0.201753
0.517815 0.795310 0.194685
0.666182 0.796847 0.190068
0.814009 0.798545 0.185991
0.961836 0.800244 0.181914
1.000000 0.801943 0.177836
0.003420 0.937426 0.209080
0.079237 0.938228 0.202013
0.230055 0.939030 0.194945
0.378532 0.940534 0.190218
0.526359 0.942233 0.186141
0.674186 0.943932 0.182064
0.822014 0.945631 0.177986
0.969841 0.947330 0.173909
1.000000 0.949028 0.169832
0.017295 1.000000 0.195205
0.090882 1.000000 0.190368
0.238709 1.000000 0.186291
0.386536 1.000000 0.182214
0.534364 1.000000 0.178136
0.682191 1.000000 0.174059
0.830018 1.000000 0.169982
0.977845 1.000000 0.165905
1.000000 1.000000 0.161827
0.000000 0.013974 0.402830
0.025160 0.013077 0.399840
0.171900 0.012180 0.396850
0.318640 0.011283 0.393860
0.465380 0.010386 0.390870
0.612120 0.009489 0.387880
0.758860 0.008592 0.384890
0.905600 0.007695 0.381900
0.977340 0.006798 0.378910
0.000000 0.080963 0.396960
0.031030 0.080066 0.393970
0.177770 0.079169 0.390980
0.324510 0.078272 0.387990
0.471250 0.077375 0.385000
0.617990 0.076478 0.382010
0.764730 0.075581 0.379020
0.911470 0.074684 0.376030
0.983210 0.073787 0.373040
0.000000 0.222952 0.391090
0.036900 0.222055 0.388100
0.183640 0.221158 0.385110
0.330380 0.220261 0.382120
0.477120 0.219364 0.379130
0.623860 0.218467 0.376140
0.770600 0.217570 0.373150
0.917463 0.216724 0.370037
0.993280 0.217526 0.362970
0.000000 0.364941 0.385220
0.042770 0.364044 0.382230
0.189510 0.363147 0.379240
0.336250 0.362250 0.376250
0.482990 0.361353 0.373260
0.629730 0.360456 0.370270
0.780520 0.361247 0.363230
0.931337 0.362048 0.356163
1.000000 0.362850 0.349095
0.000000 0.506930 0.379350
0.048640 0.506033 0.376360
0.195380 0.505136 0.373370
0.342120 0.504239 0.370380
0.492760 0.504967 0.363490
0.643577 0.505769 0.356423
0.794395 0.506571 0.349355
0.945212 0.507373 0.342288
1.000000 0.508420 0.336041
0.000000 0.648919 0.373480
0.054510 0.648022 0.370490
0.205000 0.648688 0.363750
0.355817 0.649489 0.356683
0.506635 0.650291 0.349615
0.657452 0.651093 0.342548
0.807559 0.652108 0.336191
0.955386 0.653807 0.332114
1.000000 0.655506 0.328036
0.000000 0.792408 0.364010
0.068057 0.793210 0.356943
0.218875 0.794012 0.349875
0.369692 0.794814 0.342808
0.519909 0.795795 0.336341
0.667736 0.797494 0.332264
0.815564 0.799193 0.328186
0.963391 0.800892 0.324109
1.000000 0.802591 0.320032
0.006115 0.937732 0.350135
0.081932 0.938534 0.343068
0.232259 0.939483 0.336491
0.380086 0.941182 0.332414
0.527914 0.942881 0.328336
0.675741 0.944580 0.324259
0.823568 0.946278 0.320182
0.971395 0.947977 0.316105
1.000000 0.949676 0.312027
0.019609 1.000000 0.336641
0.092436 1.000000 0.332564
0.240264 1.000000 0.328486
0.388091 1.000000 0.324409
0.535918 1.000000 0.320332
0.683745 1.000000 0.316255
0.831573 1.000000 0.312177
0.979400 1.000000 0.308100
1.000000 1.000000 0.304023
0.000000 0.013632 0.545440
0.026300 0.012735 0.542450
0.173040 0.011838 0.539460
0.319780 0.010941 0.536470
0.466520 0.010044 0.533480
0.613260 0.009147 0.530490
0.760000 0.008250 0.527500
0.906740 0.007353 0.524510
0.978480 0.006456 0.521520
0.000000 0.080621 0.539570
0.032170 0.079724 0.536580
0.178910 0.078827 0.533590
0.325650 0.077930 0.530600
0.472390 0.077033 0.527610
0.619130 0.076136 0.524620
0.765870 0.075239 0.521630
0.912610 0.074342 0.518640
0.984350 0.073445 0.515650
0.000000 0.222610 0.533700
0.038040 0.221713 0.530710
0.184780 0.220816 0.527720
0.331520 0.219919 0.524730
0.478260 0.219022 0.521740
0.625000 0.218125 0.518750
0.771740 0.217228 0.515760
0.920157 0.217030 0.511093
0.995975 0.217832 0.504025
0.000000 0.364599 0.527830
0.043910 0.363702 0.524840
0.190650 0.362805 0.521850
0.337390 0.361908 0.518860
0.484130 0.361011 0.515870
0.632397 0.360750 0.511353
0.783215 0.361552 0.504285
0.934032 0.362354 0.497218
1.000000 0.363156 0.490151
0.000000 0.506588 0.521960
0.049780 0.505691 0.518970
0.196520 0.504794 0.515980
0.344637 0.504471 0.511613
0.495455 0.505273 0.504545
0.646272 0.506075 0.497478
0.797089 0.506876 0.490411
0.947906 0.507678 0.483344
1.000000 0.509068 0.478236
0.000000 0.648577 0.516090
0.056877 0.648191 0.511873
0.207695 0.648993 0.504805
0.358512 0.649795 0.497738
0.509329 0.650597 0.490671
0.660146 0.651399 0.483604
0.809114 0.652756 0.478386
0.956941 0.654455 0.474309
1.000000 0.656153 0.470232
0.000000 0.792714 0.505065
0.070752 0.793516 0.497998
0.221569 0.794317 0.490931
0.372386 0.795119 0.483864
0.521464 0.796443 0.478536
0.669291 0.798142 0.474459
0.817118 0.799841 0.470382
0.964945 0.801540 0.466305
1.000000 0.803239 0.462227
0.008809 0.938038 0.491191
0.084626 0.938840 0.484124
0.233814 0.940131 0.478686
0.381641 0.941830 0.474609
0.529468 0.943528 0.470532
0.677295 0.945227 0.466455
0.825123 0.946926 0.462377
0.972950 0.948625 0.458300
1.000000 0.950324 0.454223
0.021164 1.000000 0.478836
0.093991 1.000000 0.474759
0.241818 1.000000 0.470682
0.389645 1.000000 0.466605
0.537473 1.000000 0.462527
0.685300 1.000000 0.458450
0.833127 1.000000 0.454373
0.980955 1.000000 0.450295
1.000000 1.000000 0.446218
0.000000 0.013290 0.688050
0.027440 0.012393 0.685060
0.174180 0.011496 0.682070
0.320920 0.010599 0.679080
0.467660 0.009702 0.676090
0.614400 0.008805 0.673100
0.761140 0.007908 0.670110
0.907880 0.007011 0.667120
0.979620 0.006114 0.664130
0.000000 0.080279 0.682180
0.033310 0.079382 0.679190
0.180050 0.078485 0.676200
0.326790 0.077588 0.673210
0.473530 0.076691 0.670220
0.620270 0.075794 0.667230
0.767010 0.074897 0.664240
0.913750 0.074000 0.661250
0.985490 0.073103 0.658260
0.000000 0.222268 0.676310
0.039180 0.221371 0.673320
0.185920 0.220474 0.670330
0.332660 0.219577 0.667340
0.479400 0.218680 0.664350
0.626140 0.217783 0.661360
0.772880 0.216886 0.658370
0.922852 0.217336 0.652148
0.998669 0.218137 0.645081
0.000000 0.364257 0.670440
0.045050 0.363360 0.667450
0.191790 0.362463 0.664460
0.338530 0.361566 0.661470
0.485270 0.360669 0.658480
0.635092 0.361056 0.652408
0.785909 0.361858 0.645341
0.936726 0.362660 0.638274
1.000000 0.363462 0.631206
0.000000 0.506246 0.664570
0.050920 0.505349 0.661580
0.197660 0.504452 0.658590
0.347332 0.504777 0.652668
0.498149 0.505578 0.645601
0.648966 0.506380 0.638534
0.799784 0.507182 0.631466
0.950491 0.508017 0.624509
1.000000 0.509716 0.620432
0.000000 0.648235 0.658700
0.059572 0.648497 0.652928
0.210389 0.649299 0.645861
0.361206 0.650101 0.638794
0.512024 0.650903 0.631726
0.662841 0.651705 0.624659
0.810668 0.653403 0.620582
0.958495 0.655102 0.616505
1.000000 0.656801 0.612427
0.000000 0.793019 0.646121
0.073446 0.793821 0.639054
0.224264 0.794623 0.631986
0.375081 0.795425 0.624919
0.523018 0.797091 0.620732
0.670845 0.798790 0.616655
0.818673 0.800489 0.612577
0.966500 0.802187 0.608500
1.000000 0.803886 0.604423
0.011504 0.938344 0.632246
0.087321 0.939146 0.625179
0.235368 0.940778 0.620882
0.383195 0.942477 0.616805
0.531023 0.944176 0.612727
0.678850 0.945875 0.608650
0.826677 0.947574 0.604573
0.974505 0.949273 0.600495
1.000000 0.950972 0.596418
0.022718 1.000000 0.621032
0.095545 1.000000 0.616955
0.243373 1.000000 0.612877
0.391200 1.000000 0.608800
0.539027 1.000000 0.604723
0.686855 1.000000 0.600645
0.834682 1.000000 0.596568
0.982509 1.000000 0.592491
1.000000 1.000000 0.588414
0.000000 0.012948 0.830660
0.028580 0.012051 0.827670
0.175320 0.011154 0.824680
0.322060 0.010257 0.821690
0.468800 0.009360 0.818700
0.615540 0.008463 0.815710
0.762280 0.007566 0.812720
0.909020 0.006669 0.809730
0.980760 0.005772 0.806740
0.000000 0.079937 0.824790
0.034450 0.079040 0.821800
0.181190 0.078143 0.818810
0.327930 0.077246 0.815820
0.474670 0.076349 0.812830
0.621410 0.075452 0.809840
0.768150 0.074555 0.806850
0.914890 0.073658 0.803860
0.987489 0.073119 0.800011
0.000000 0.221926 0.818920
0.040320 0.221029 0.815930
0.187060 0.220132 0.812940
0.333800 0.219235 0.809950
0.480540 0.218338 0.806960
0.627280 0.217441 0.803970
0.774729 0.216839 0.800271
0.925546 0.217641 0.793204
1.000000 0.218443 0.786136
0.000000 0.363915 0.813050
0.046190 0.363018 0.810060
0.192930 0.362121 0.807070
0.339670 0.361224 0.804080
0.486969 0.360560 0.800531
0.637786 0.361362 0.793464
0.788604 0.362164 0.786396
0.939421 0.362966 0.779329
1.000000 0.363767 0.772262
0.000000 0.505904 0.807180
0.052060 0.505007 0.804190
0.199209 0.504280 0.800791
0.350026 0.505082 0.793724
0.500844 0.505884 0.786656
0.651661 0.506686 0.779589
0.802478 0.507488 0.772522
0.952045 0.508665 0.766705
1.000000 0.510364 0.762627
0.000000 0.648001 0.801051
0.062266 0.648803 0.793984
0.213084 0.649605 0.786916
0.363901 0.650407 0.779849
0.514718 0.651208 0.772782
0.664395 0.652352 0.766855
0.812223 0.654051 0.762777
0.960050 0.655750 0.758700
1.000000 0.657449 0.754623
0.000324 0.793325 0.787176
0.076141 0.794127 0.780109
0.226958 0.794929 0.773042
0.376745 0.796040 0.767005
0.524573 0.797739 0.762927
0.672400 0.799438 0.758850
0.820227 0.801136 0.754773
0.968055 0.802835 0.750695
1.000000 0.804534 0.746618
0.014198 0.938649 0.773302
0.089095 0.939727 0.767155
0.236923 0.941426 0.763077
0.384750 0.943125 0.759000
0.532577 0.944824 0.754923
0.680405 0.946523 0.750845
0.828232 0.948222 0.746768
0.976059 0.949920 0.742691
1.000000 0.951619 0.738614
0.024273 1.000000 0.763227
0.097100 1.000000 0.759150
0.244927 1.000000 0.755073
0.392755 1.000000 0.750995
0.540582 1.000000 0.746918
0.688409 1.000000 0.742841
0.836236 1.000000 0.738764
0.984064 1.000000 0.734686
1.000000 1.000000 0.730609
0.000000 0.012606 0.973270
0.029720 0.011709 0.970280
0.176460 0.010812 0.967290
0.323200 0.009915 0.964300
0.469940 0.009018 0.961310
0.616680 0.008121 0.958320
0.763420 0.007224 0.955330
0.910160 0.006327 0.952340
0.981900 0.005430 0.949350
0.000000 0.079595 0.967400
0.035590 0.078698 0.964410
0.182330 0.077801 0.961420
0.329070 0.076904 0.958430
0.475810 0.076007 0.955440
0.622550 0.075110 0.952450
0.769290 0.074213 0.949460
0.916030 0.073316 0.946470
0.990184 0.073425 0.941066
0.000000 0.221584 0.961530
0.041460 0.220687 0.958540
0.188200 0.219790 0.955550
0.334940 0.218893 0.952560
0.481680 0.217996 0.949570
0.628420 0.217099 0.946580
0.777424 0.217145 0.941326
0.928241 0.217947 0.934259
1.000000 0.218749 0.927192
0.000000 0.363573 0.955660
0.047330 0.362676 0.952670
0.194070 0.361779 0.949680
0.340810 0.360882 0.946690
0.489664 0.360866 0.941586
0.640481 0.361668 0.934519
0.791298 0.362469 0.927452
0.942115 0.363271 0.920385
1.000000 0.364073 0.913317
0.000000 0.505562 0.949790
0.053200 0.504665 0.946800
0.201904 0.504586 0.941846
0.352721 0.505388 0.934779
0.503538 0.506190 0.927712
0.654355 0.506992 0.920645
0.805173 0.507794 0.913577
0.953600 0.509312 0.908900
1.000000 0.511011 0.904823
0.000000 0.648307 0.942106
0.064961 0.649109 0.935039
0.215778 0.649910 0.927972
0.366595 0.650712 0.920905
0.517413 0.651514 0.913837
0.665950 0.653000 0.909050
0.813777 0.654699 0.904973
0.961605 0.656398 0.900895
1.000000 0.658097 0.896818
0.003018 0.793631 0.928232
0.078835 0.794433 0.921165
0.229653 0.795235 0.914097
0.378300 0.796687 0.909200
0.526127 0.798386 0.905123
0.673955 0.800085 0.901045
0.821782 0.801784 0.896968
0.969609 0.803483 0.892891
1.000000 0.805182 0.888814
0.016893 0.938955 0.914357
0.090650 0.940375 0.909350
0.238477 0.942074 0.905273
0.386305 0.943773 0.901195
0.534132 0.945472 0.897118
0.681959 0.947170 0.893041
0.829786 0.948869 0.888964
0.977614 0.950568 0.884886
1.000000 0.952267 0.880809
0.025827 1.000000 0.905423
0.098655 1.000000 0.901345
0.246482 1.000000 0.897268
0.394309 1.000000 0.893191
0.542136 1.000000 0.889114
0.689964 1.000000 0.885036
0.837791 1.000000 0.880959
0.985618 1.000000 0.876882
1.000000 1.000000 0.872805
0.000000 0.012264 1.000000
0.030860 0.011367 1.000000
0.177600 0.010470 1.000000
0.324340 0.009573 1.000000
0.471080 0.008676 1.000000
0.617820 0.007779 1.000000
0.764560 0.006882 1.000000
0.911300 0.005985 1.000000
0.983040 0.005088 1.000000
0.000000 0.079253 1.000000
0.036730 0.078356 1.000000
0.183470 0.077459 1.000000
0.330210 0.076562 1.000000
0.476950 0.075665 1.000000
0.623690 0.074768 1.000000
0.770430 0.073871 1.000000
0.917170 0.072974 1.000000
0.992878 0.073730 1.000000
0.000000 0.221242 1.000000
0.042600 0.220345 1.000000
0.189340 0.219448 1.000000
0.336080 0.218551 1.000000
0.482820 0.217654 1.000000
0.629560 0.216757 1.000000
0.780118 0.217451 1.000000
0.930935 0.218253 1.000000
1.000000 0.219055 0.993247
0.000000 0.363231 1.000000
0.048470 0.362334 1.000000
0.195210 0.361437 1.000000
0.341950 0.360540 1.000000
0.492358 0.361171 1.000000
0.643175 0.361973 1.000000
0.793993 0.362775 0.993507
0.944810 0.363577 0.986440
1.000000 0.364574 0.980023
0.000000 0.505220 1.000000
0.054340 0.504323 1.000000
0.204598 0.504892 1.000000
0.355415 0.505694 1.000000
0.506233 0.506496 0.993767
0.657050 0.507298 0.986700
0.807327 0.508261 0.980173
0.955155 0.509960 0.976095
1.000000 0.511659 0.972018
0.000000 0.648612 1.000000
0.067655 0.649414 1.000000
0.218473 0.650216 0.994027
0.369290 0.651018 0.986960
0.519677 0.651949 0.980323
0.667505 0.653648 0.976245
0.815332 0.655347 0.972168
0.963159 0.657045 0.968091
1.000000 0.658744 0.964014
0.005713 0.793937 0.994287
0.081530 0.794739 0.987220
0.232027 0.795636 0.980473
0.379855 0.797335 0.976395
0.527682 0.799034 0.972318
0.675509 0.800733 0.968241
0.823336 0.802432 0.964164
0.971164 0.804131 0.960086
1.000000 0.805830 0.956009
0.019377 0.939324 0.980623
0.092205 0.941023 0.976545
0.240032 0.942722 0.972468
0.387859 0.944420 0.968391
0.535686 0.946119 0.964314
0.683514 0.947818 0.960236
0.831341 0.949517 0.956159
0.979168 0.951216 0.952082
1.000000 0.952915 0.948005
0.027382 1.000000 0.972618
0.100209 1.000000 0.968541
0.248036 1.000000 0.964464
0.395864 1.000000 0.960386
0.543691 1.000000 0.956309
0.691518 1.000000 0.952232
0.839345 1.000000 0.948155
0.987173 1.000000 0.944077
1.000000 1.000000 0.940000
