CineCam/app/src/main/assets/luts/teal_orange.cube
TITLE "CineCam Teal & Orange"
LUT_3D_SIZE 5
DOMAIN_MIN 0.0 0.0 0.0
DOMAIN_MAX 1.0 1.0 1.0
0.000000 0.015000 0.050000
0.168480 0.013206 0.044020
0.461960 0.011412 0.038040
0.755440 0.009618 0.032060
0.973920 0.007824 0.026080
0.000000 0.223978 0.038260
0.180220 0.222184 0.032280
0.473700 0.220390 0.026300
0.767180 0.218596 0.020320
0.985660 0.216802 0.014340
0.000000 0.507956 0.026520
0.191960 0.506162 0.020540
0.485440 0.504368 0.014560
0.786311 0.505654 0.001189
1.000000 0.507257 0.000000
0.000000 0.791934 0.014780
0.210791 0.793095 0.001709
0.512425 0.794698 0.000000
0.810900 0.797250 0.000000
1.000000 0.800648 0.000000
0.011905 1.000000 0.000000
0.235600 1.000000 0.000000
0.531255 1.000000 0.000000
0.826909 1.000000 0.000000
1.000000 1.000000 0.000000
0.000000 0.014316 0.260220
0.170760 0.012522 0.254240
0.464240 0.010728 0.248260
0.757720 0.008934 0.242280
0.976200 0.007140 0.236300
0.000000 0.223294 0.248480
0.182500 0.221500 0.242500
0.475980 0.219706 0.236520
0.769460 0.217912 0.230540
0.990585 0.217220 0.221915
0.000000 0.507272 0.236740
0.194240 0.505478 0.230760
0.490065 0.504661 0.222435
0.791700 0.506265 0.208300
1.000000 0.507869 0.194165
0.000000 0.792102 0.222955
0.216180 0.793706 0.208820
0.517815 0.795310 0.194685
0.814009 0.798545 0.185991
1.000000 0.801943 0.177836
0.017295 1.000000 0.195205
0.238709 1.000000 0.186291
0.534364 1.000000 0.178136
0.830018 1.000000 0.169982
1.000000 1.000000 0.161827
0.000000 0.013632 0.545440
0.173040 0.011838 0.539460
0.466520 0.010044 0.533480
0.760000 0.008250 0.527500
0.978480 0.006456 0.521520
0.000000 0.222610 0.533700
0.184780 0.220816 0.527720
0.478260 0.219022 0.521740
0.771740 0.217228 0.515760
0.995975 0.217832 0.504025
0.000000 0.506588 0.521960
0.196520 0.504794 0.515980
0.495455 0.505273 0.504545
0.797089 0.506876 0.490411
1.000000 0.509068 0.478236
0.000000 0.792714 0.505065
0.221569 0.794317 0.490931
0.521464 0.796443 0.478536
0.817118 0.799841 0.470382
1.000000 0.803239 0.462227
0.021164 1.000000 0.478836
0.241818 1.000000 0.470682
0.537473 1.000000 0.462527
0.833127 1.000000 0.454373
1.000000 1.000000 0.446218
0.000000 0.012948 0.830660
0.175320 0.011154 0.824680
0.468800 0.009360 0.818700
0.762280 0.007566 0.812720
0.980760 0.005772 0.806740
0.000000 0.221926 0.818920
0.187060 0.220132 0.812940
0.480540 0.218338 0.806960
0.774729 0.216839 0.800271
1.000000 0.218443 0.786136
0.000000 0.505904 0.807180
0.199209 0.504280 0.800791
0.500844 0.505884 0.786656
0.802478 0.507488 0.772522
1.000000 0.510364 0.762627
0.000324 0.793325 0.787176
0.226958 0.794929 0.773042
0.524573 0.797739 0.762927
0.820227 0.801136 0.754773
1.000000 0.804534 0.746618
0.024273 1.000000 0.763227
0.244927 1.000000 0.755073
0.540582 1.000000 0.746918
0.836236 1.000000 0.738764
1.000000 1.000000 0.730609
0.000000 0.012264 1.000000
0.177600 0.010470 1.000000
0.471080 0.008676 1.000000
0.764560 0.006882 1.000000
0.983040 0.005088 1.000000
0.000000 0.221242 1.000000
0.189340 0.219448 1.000000
0.482820 0.217654 1.000000
0.780118 0.217451 1.000000
1.000000 0.219055 0.993247
0.000000 0.505220 1.000000
0.204598 0.504892 1.000000
0.506233 0.506496 0.993767
0.807327 0.508261 0.980173
1.000000 0.511659 0.972018
0.005713 0.793937 0.994287
0.232027 0.795636 0.980473
0.527682 0.799034 0.972318
0.823336 0.802432 0.964164
1.000000 0.805830 0.956009
0.027382 1.000000 0.972618
0.248036 1.000000 0.964464
0.543691 1.000000 0.956309
0.839345 1.000000 0.948155
1.000000 1.000000 0.940000
