CineCam/app/src/main/assets/luts/teal_orange.cube
TITLE "CineCam Teal & Orange"
LUT_3D_SIZE 17
DOMAIN_MIN 0.0 0.0 0.0
DOMAIN_MAX 1.0 1.0 1.0
0.000000 0.015000 0.050000
0.000000 0.014551 0.048505
0.021740 0.014103 0.047010
0.095110 0.013654 0.045515
0.168480 0.013206 0.044020
0.241850 0.012757 0.042525
0.315220 0.012309 0.041030
0.388590 0.011860 0.039535
0.461960 0.011412 0.038040
0.535330 0.010963 0.036545
0.608700 0.010515 0.035050
0.682070 0.010067 0.033555
0.755440 0.009618 0.032060
0.828810 0.009169 0.030565
0.902180 0.008721 0.029070
0.972425 0.008273 0.027575
0.973920 0.007824 0.026080
0.000000 0.014120 0.047065
0.000000 0.013671 0.045570
0.024675 0.013222 0.044075
0.098045 0.012774 0.042580
0.171415 0.012325 0.041085
0.244785 0.011877 0.039590
0.318155 0.011428 0.038095
0.391525 0.010980 0.036600
0.464895 0.010531 0.035105
0.538265 0.010083 0.033610
0.611635 0.009634 0.032115
0.685005 0.009186 0.030620
0.758375 0.008738 0.029125
0.831745 0.008289 0.027630
0.905115 0.007840 0.026135
0.975360 0.007392 0.024640
0.976855 0.006943 0.023145
0.000000 0.081989 0.044130
0.000000 0.081541 0.042635
0.027610 0.081092 0.041140
0.100980 0.080644 0.039645
0.174350 0.080195 0.038150
0.247720 0.079747 0.036655
0.321090 0.079298 0.035160
0.394460 0.078850 0.033665
0.467830 0.078401 0.032170
0.541200 0.077953 0.030675
0.614570 0.077504 0.029180
0.687940 0.077056 0.027685
0.761310 0.076607 0.026190
0.834680 0.076159 0.024695
0.908050 0.075710 0.023200
0.978295 0.075262 0.021705
0.979790 0.074813 0.020210
0.000000 0.152983 0.041195
0.000000 0.152535 0.039700
0.030545 0.152087 0.038205
0.103915 0.151638 0.036710
0.177285 0.151190 0.035215
0.250655 0.150741 0.033720
0.324025 0.150292 0.032225
0.397395 0.149844 0.030730
0.470765 0.149395 0.029235
0.544135 0.148947 0.027740
0.617505 0.148499 0.026245
0.690875 0.148050 0.024750
0.764245 0.147601 0.023255
0.837615 0.147153 0.021760
0.910985 0.146704 0.020265
0.981230 0.146256 0.018770
0.982725 0.145808 0.017275
0.000000 0.223978 0.038260
0.000000 0.223530 0.036765
0.033480 0.223081 0.035270
0.106850 0.222633 0.033775
0.180220 0.222184 0.032280
0.253590 0.221736 0.030785
0.326960 0.221287 0.029290
0.400330 0.220839 0.027795
0.473700 0.220390 0.026300
0.547070 0.219942 0.024805
0.620440 0.219493 0.023310
0.693810 0.219045 0.021815
0.767180 0.218596 0.020320
0.840550 0.218148 0.018825
0.913920 0.217699 0.017330
0.984165 0.217251 0.015835
0.985660 0.216802 0.014340
0.000000 0.294973 0.035325
0.000000 0.294524 0.033830
0.036415 0.294076 0.032335
0.109785 0.293627 0.030840
0.183155 0.293179 0.029345
0.256525 0.292730 0.027850
0.329895 0.292282 0.026355
0.403265 0.291833 0.024860
0.476635 0.291385 0.023365
0.550005 0.290936 0.021870
0.623375 0.290488 0.020375
0.696745 0.290039 0.018880
0.770115 0.289591 0.017385
0.843485 0.289142 0.015890
0.916855 0.288694 0.014395
0.988600 0.288870 0.011400
0.992134 0.289271 0.007866
0.000000 0.365967 0.032390
0.000000 0.365519 0.030895
0.039350 0.365070 0.029400
0.112720 0.364621 0.027905
0.186090 0.364173 0.026410
0.259460 0.363725 0.024915
0.332830 0.363276 0.023420
0.406200 0.362828 0.021925
0.479570 0.362379 0.020430
0.552940 0.361930 0.018935
0.626310 0.361482 0.017440
0.699680 0.361034 0.015945
0.773050 0.360585 0.014450
0.847845 0.360730 0.011530
0.923254 0.361131 0.007996
0.995537 0.361532 0.004463
0.999071 0.361933 0.000929
0.000000 0.436962 0.029455
0.000000 0.436513 0.027960
0.042285 0.436064 0.026465
0.115655 0.435616 0.024970
0.189025 0.435167 0.023475
0.262395 0.434719 0.021980
0.335765 0.434271 0.020485
0.409135 0.433822 0.018990
0.482505 0.433373 0.017495
0.555875 0.432925 0.016000
0.629245 0.432476 0.014505
0.703965 0.432590 0.011660
0.779374 0.432991 0.008126
0.854782 0.433392 0.004593
0.930191 0.433793 0.001059
1.000000 0.434194 0.000000
1.000000 0.434595 0.000000
0.000000 0.507956 0.026520
0.000000 0.507508 0.025025
0.045220 0.507059 0.023530
0.118590 0.506610 0.022035
0.191960 0.506162 0.020540
0.265330 0.505714 0.019045
0.338700 0.505265 0.017550
0.412070 0.504817 0.016055
0.485440 0.504368 0.014560
0.560085 0.504451 0.011790
0.635494 0.504852 0.008256
0.710902 0.505253 0.004723
0.786311 0.505654 0.001189
0.861720 0.506054 0.000000
0.937128 0.506455 0.000000
1.000000 0.506856 0.000000
1.000000 0.507257 0.000000
0.000000 0.578951 0.023585
0.000000 0.578502 0.022090
0.048155 0.578053 0.020595
0.121525 0.577605 0.019100
0.194895 0.577157 0.017605
0.268265 0.576708 0.016110
0.341635 0.576260 0.014615
0.416205 0.576311 0.011920
0.491614 0.576712 0.008386
0.567022 0.577113 0.004853
0.642431 0.577514 0.001319
0.717840 0.577915 0.000000
0.793248 0.578316 0.000000
0.868657 0.578717 0.000000
0.944065 0.579118 0.000000
1.000000 0.579518 0.000000
1.000000 0.580020 0.000000
0.000000 0.649945 0.020650
0.000000 0.649497 0.019155
0.051090 0.649048 0.017660
0.124460 0.648599 0.016165
0.197830 0.648151 0.014670
0.272325 0.648171 0.012050
0.347734 0.648572 0.008516
0.423142 0.648973 0.004983
0.498551 0.649374 0.001449
0.573960 0.649775 0.000000
0.649368 0.650176 0.000000
0.724777 0.650577 0.000000
0.800185 0.650978 0.000000
0.875594 0.651379 0.000000
0.950723 0.651864 0.000000
1.000000 0.652713 0.000000
1.000000 0.653563 0.000000
0.000000 0.720939 0.017715
0.000000 0.720491 0.016220
0.054025 0.720042 0.014725
0.128445 0.720031 0.012180
0.203854 0.720432 0.008646
0.279262 0.720833 0.005113
0.354671 0.721234 0.001579
0.430080 0.721635 0.000000
0.505488 0.722036 0.000000
0.580897 0.722437 0.000000
0.656305 0.722838 0.000000
0.731714 0.723239 0.000000
0.806898 0.723707 0.000000
0.880811 0.724557 0.000000
0.954725 0.725406 0.000000
1.000000 0.726256 0.000000
1.000000 0.727105 0.000000
0.000000 0.791934 0.014780
0.000000 0.791892 0.012310
0.059974 0.792293 0.008776
0.135382 0.792694 0.005243
0.210791 0.793095 0.001709
0.286200 0.793495 0.000000
0.361608 0.793896 0.000000
0.437017 0.794297 0.000000
0.512425 0.794698 0.000000
0.587834 0.795099 0.000000
0.663073 0.795551 0.000000
0.736986 0.796401 0.000000
0.810900 0.797250 0.000000
0.884814 0.798099 0.000000
0.958727 0.798949 0.000000
1.000000 0.799798 0.000000
1.000000 0.800648 0.000000
0.000000 0.864153 0.008906
0.000000 0.864554 0.005373
0.066911 0.864955 0.001839
0.142320 0.865356 0.000000
0.217728 0.865757 0.000000
0.293137 0.866158 0.000000
0.368545 0.866559 0.000000
0.443954 0.866959 0.000000
0.519248 0.867395 0.000000
0.593161 0.868244 0.000000
0.667075 0.869094 0.000000
0.740989 0.869943 0.000000
0.814902 0.870793 0.000000
0.888816 0.871642 0.000000
0.962730 0.872491 0.000000
1.000000 0.873341 0.000000
1.000000 0.874190 0.000000
0.000000 0.936815 0.001969
0.001565 0.937216 0.000000
0.073848 0.937617 0.000000
0.149257 0.938018 0.000000
0.224665 0.938419 0.000000
0.300074 0.938820 0.000000
0.375423 0.939239 0.000000
0.449336 0.940088 0.000000
0.523250 0.940937 0.000000
0.597164 0.941787 0.000000
0.671077 0.942636 0.000000
0.744991 0.943486 0.000000
0.818905 0.944335 0.000000
0.892818 0.945185 0.000000
0.966732 0.946034 0.000000
1.000000 0.946884 0.000000
1.000000 0.947733 0.000000
0.004968 1.000000 0.000000
0.008502 1.000000 0.000000
0.080785 1.000000 0.000000
0.156194 1.000000 0.000000
0.231598 1.000000 0.000000
0.305511 1.000000 0.000000
0.379425 1.000000 0.000000
0.453339 1.000000 0.000000
0.527252 1.000000 0.000000
0.601166 1.000000 0.000000
0.675080 1.000000 0.000000
0.748993 1.000000 0.000000
0.822907 1.000000 0.000000
0.896820 1.000000 0.000000
0.970734 1.000000 0.000000
1.000000 1.000000 0.000000
1.000000 1.000000 0.000000
0.011905 1.000000 0.000000
0.015439 1.000000 0.000000
0.087723 1.000000 0.000000
0.161686 1.000000 0.000000
0.235600 1.000000 0.000000
0.309514 1.000000 0.000000
0.383427 1.000000 0.000000
0.457341 1.000000 0.000000
0.531255 1.000000 0.000000
0.605168 1.000000 0.000000
0.679082 1.000000 0.000000
0.752995 1.000000 0.000000
0.826909 1.000000 0.000000
0.900823 1.000000 0.000000
0.974736 1.000000 0.000000
1.000000 1.000000 0.000000
1.000000 1.000000 0.000000
0.000000 0.014829 0.049430
0.000000 0.014380 0.047935
0.022310 0.013932 0.046440
0.095680 0.013484 0.044945
0.169050 0.013035 0.043450
0.242420 0.012586 0.041955
0.315790 0.012138 0.040460
0.389160 0.011690 0.038965
0.462530 0.011241 0.037470
0.535900 0.010793 0.035975
0.609270 0.010344 0.034480
0.682640 0.009895 0.032985
0.756010 0.009447 0.031490
0.829380 0.008998 0.029995
0.902750 0.008550 0.028500
0.972995 0.008101 0.027005
0.974490 0.007653 0.025510
0.000000 0.013948 0.046495
0.000000 0.013500 0.045000
0.025245 0.013051 0.043505
0.098615 0.012603 0.042010
0.171985 0.012155 0.040515
0.245355 0.011706 0.039020
0.318725 0.011257 0.037525
0.392095 0.010809 0.036030
0.465465 0.010360 0.034535
0.538835 0.009912 0.033040
0.612205 0.009463 0.031545
0.685575 0.009015 0.030050
0.758945 0.008566 0.028555
0.832315 0.008118 0.027060
0.905685 0.007670 0.025565
0.975930 0.007221 0.024070
0.977425 0.006772 0.022575
0.000000 0.081818 0.043560
0.000000 0.081370 0.042065
0.028180 0.080921 0.040570
0.101550 0.080473 0.039075
0.174920 0.080024 0.037580
0.248290 0.079576 0.036085
0.321660 0.079127 0.034590
0.395030 0.078679 0.033095
0.468400 0.078230 0.031600
0.541770 0.077782 0.030105
0.615140 0.077333 0.028610
0.688510 0.076885 0.027115
0.761880 0.076436 0.025620
0.835250 0.075988 0.024125
0.908620 0.075539 0.022630
0.978865 0.075091 0.021135
0.980360 0.074642 0.019640
0.000000 0.152812 0.040625
0.000000 0.152364 0.039130
0.031115 0.151916 0.037635
0.104485 0.151467 0.036140
0.177855 0.151018 0.034645
0.251225 0.150570 0.033150
0.324595 0.150121 0.031655
0.397965 0.149673 0.030160
0.471335 0.149225 0.028665
0.544705 0.148776 0.027170
0.618075 0.148328 0.025675
0.691445 0.147879 0.024180
0.764815 0.147430 0.022685
0.838185 0.146982 0.021190
0.911555 0.146534 0.019695
0.981800 0.146085 0.018200
0.983295 0.145637 0.016705
0.000000 0.223807 0.037690
0.000000 0.223359 0.036195
0.034050 0.222910 0.034700
0.107420 0.222462 0.033205
0.180790 0.222013 0.031710
0.254160 0.221565 0.030215
0.327530 0.221116 0.028720
0.400900 0.220668 0.027225
0.474270 0.220219 0.025730
0.547640 0.219771 0.024235
0.621010 0.219322 0.022740
0.694380 0.218874 0.021245
0.767750 0.218425 0.019750
0.841120 0.217977 0.018255
0.914490 0.217528 0.016760
0.984735 0.217080 0.015265
0.986544 0.216762 0.013456
0.000000 0.294802 0.034755
0.000000 0.294353 0.033260
0.036985 0.293905 0.031765
0.110355 0.293456 0.030270
0.183725 0.293008 0.028775
0.257095 0.292559 0.027280
0.330465 0.292111 0.025785
0.403835 0.291662 0.024290
0.477205 0.291214 0.022795
0.550575 0.290765 0.021300
0.623945 0.290317 0.019805
0.697315 0.289868 0.018310
0.770685 0.289420 0.016815
0.844055 0.288971 0.015320
0.917664 0.288622 0.013586
0.989947 0.289023 0.010053
0.993481 0.289424 0.006519
0.000000 0.365796 0.031820
0.000000 0.365347 0.030325
0.039920 0.364899 0.028830
0.113290 0.364451 0.027335
0.186660 0.364002 0.025840
0.260030 0.363554 0.024345
0.333400 0.363105 0.022850
0.406770 0.362656 0.021355
0.480140 0.362208 0.019860
0.553510 0.361760 0.018365
0.626880 0.361311 0.016870
0.700250 0.360863 0.015375
0.773784 0.360482 0.013716
0.849192 0.360883 0.010183
0.924601 0.361284 0.006649
0.996885 0.361685 0.003115
1.000000 0.362086 0.000000
0.000000 0.436790 0.028885
0.000000 0.436342 0.027390
0.042855 0.435893 0.025895
0.116225 0.435445 0.024400
0.189595 0.434996 0.022905
0.262965 0.434548 0.021410
0.336335 0.434099 0.019915
0.409705 0.433651 0.018420
0.483075 0.433202 0.016925
0.556445 0.432754 0.015430
0.629904 0.432342 0.013846
0.705312 0.432743 0.010313
0.780721 0.433144 0.006779
0.856130 0.433545 0.003245
0.931538 0.433946 0.000000
1.000000 0.434347 0.000000
1.000000 0.434748 0.000000
0.000000 0.507785 0.025950
0.000000 0.507336 0.024455
0.045790 0.506888 0.022960
0.119160 0.506440 0.021465
0.192530 0.505991 0.019970
0.265900 0.505543 0.018475
0.339270 0.505094 0.016980
0.412640 0.504645 0.015485
0.486024 0.504203 0.013976
0.561432 0.504604 0.010443
0.636841 0.505005 0.006909
0.712250 0.505405 0.003375
0.787658 0.505806 0.000000
0.863067 0.506207 0.000000
0.938475 0.506608 0.000000
1.000000 0.507009 0.000000
1.000000 0.507410 0.000000
0.000000 0.578780 0.023015
0.000000 0.578331 0.021520
0.048725 0.577883 0.020025
0.122095 0.577434 0.018530
0.195465 0.576986 0.017035
0.268835 0.576537 0.015540
0.342205 0.576089 0.014045
0.417552 0.576464 0.010573
0.492961 0.576865 0.007039
0.568370 0.577266 0.003505
0.643778 0.577667 0.000000
0.719187 0.578068 0.000000
0.794595 0.578469 0.000000
0.870004 0.578869 0.000000
0.945413 0.579270 0.000000
1.000000 0.579671 0.000000
1.000000 0.580344 0.000000
0.000000 0.649774 0.020080
0.000000 0.649325 0.018585
0.051660 0.648877 0.017090
0.125030 0.648429 0.015595
0.198400 0.647980 0.014100
0.273672 0.648324 0.010703
0.349081 0.648725 0.007169
0.424490 0.649126 0.003635
0.499898 0.649527 0.000102
0.575307 0.649928 0.000000
0.650715 0.650329 0.000000
0.726124 0.650730 0.000000
0.801533 0.651131 0.000000
0.876941 0.651532 0.000000
0.951500 0.652188 0.000000
1.000000 0.653037 0.000000
1.000000 0.653886 0.000000
0.000000 0.720768 0.017145
0.000000 0.720320 0.015650
0.054595 0.719871 0.014155
0.129792 0.720184 0.010833
0.205201 0.720585 0.007299
0.280610 0.720986 0.003765
0.356018 0.721387 0.000232
0.431427 0.721788 0.000000
0.506835 0.722189 0.000000
0.582244 0.722590 0.000000
0.657653 0.722991 0.000000
0.733061 0.723392 0.000000
0.807675 0.724031 0.000000
0.881589 0.724881 0.000000
0.955502 0.725730 0.000000
1.000000 0.726580 0.000000
1.000000 0.727429 0.000000
0.000000 0.791763 0.014210
0.000000 0.792045 0.010963
0.061321 0.792446 0.007429
0.136730 0.792846 0.003895
0.212138 0.793247 0.000362
0.287547 0.793648 0.000000
0.362955 0.794049 0.000000
0.438364 0.794450 0.000000
0.513773 0.794851 0.000000
0.589181 0.795252 0.000000
0.663850 0.795875 0.000000
0.737764 0.796724 0.000000
0.811677 0.797574 0.000000
0.885591 0.798423 0.000000
0.959505 0.799273 0.000000
1.000000 0.800122 0.000000
1.000000 0.800972 0.000000
0.000000 0.864306 0.007559
0.000000 0.864707 0.004025
0.068258 0.865108 0.000492
0.143667 0.865509 0.000000
0.219075 0.865910 0.000000
0.294484 0.866310 0.000000
0.369893 0.866711 0.000000
0.445301 0.867112 0.000000
0.520025 0.867719 0.000000
0.593939 0.868568 0.000000
0.667852 0.869418 0.000000
0.741766 0.870267 0.000000
0.815680 0.871116 0.000000
0.889593 0.871966 0.000000
0.963507 0.872815 0.000000
1.000000 0.873665 0.000000
1.000000 0.874514 0.000000
0.000000 0.936968 0.000622
0.002912 0.937369 0.000000
0.075195 0.937770 0.000000
0.150604 0.938171 0.000000
0.226013 0.938572 0.000000
0.301421 0.938973 0.000000
0.376200 0.939562 0.000000
0.450114 0.940412 0.000000
0.524027 0.941261 0.000000
0.597941 0.942111 0.000000
0.671855 0.942960 0.000000
0.745768 0.943810 0.000000
0.819682 0.944659 0.000000
0.893595 0.945509 0.000000
0.967509 0.946358 0.000000
1.000000 0.947207 0.000000
1.000000 0.948057 0.000000
0.006315 1.000000 0.000000
0.009849 1.000000 0.000000
0.082133 1.000000 0.000000
0.157541 1.000000 0.000000
0.232375 1.000000 0.000000
0.306289 1.000000 0.000000
0.380202 1.000000 0.000000
0.454116 1.000000 0.000000
0.528030 1.000000 0.000000
0.601943 1.000000 0.000000
0.675857 1.000000 0.000000
0.749770 1.000000 0.000000
0.823684 1.000000 0.000000
0.897598 1.000000 0.000000
0.971511 1.000000 0.000000
1.000000 1.000000 0.000000
1.000000 1.000000 0.000000
0.013253 1.000000 0.000000
0.016786 1.000000 0.000000
0.088550 1.000000 0.000000
0.162464 1.000000 0.000000
0.236377 1.000000 0.000000
0.310291 1.000000 0.000000
0.384205 1.000000 0.000000
0.458118 1.000000 0.000000
0.532032 1.000000 0.000000
0.605945 1.000000 0.000000
0.679859 1.000000 0.000000
0.753773 1.000000 0.000000
0.827686 1.000000 0.000000
0.901600 1.000000 0.000000
0.975514 1.000000 0.000000
1.000000 1.000000 0.000000
1.000000 1.000000 0.000000
0.000000 0.014658 0.117610
0.000000 0.014209 0.116115
0.022880 0.013761 0.114620
0.096250 0.013312 0.113125
0.169620 0.012864 0.111630
0.242990 0.012415 0.110135
0.316360 0.011967 0.108640
0.389730 0.011518 0.107145
0.463100 0.011070 0.105650
0.536470 0.010621 0.104155
0.609840 0.010173 0.102660
0.683210 0.009724 0.101165
0.756580 0.009276 0.099670
0.829950 0.008828 0.098175
0.903320 0.008379 0.096680
0.973565 0.007931 0.095185
0.975060 0.007482 0.093690
0.000000 0.013777 0.114675
0.000000 0.013329 0.113180
0.025815 0.012880 0.111685
0.099185 0.012432 0.110190
0.172555 0.011983 0.108695
0.245925 0.011535 0.107200
0.319295 0.011086 0.105705
0.392665 0.010638 0.104210
0.466035 0.010190 0.102715
0.539405 0.009741 0.101220
0.612775 0.009292 0.099725
0.686145 0.008844 0.098230
0.759515 0.008396 0.096735
0.832885 0.007947 0.095240
0.906255 0.007498 0.093745
0.976500 0.007050 0.092250
0.977995 0.006602 0.090755
0.000000 0.081647 0.111740
0.000000 0.081199 0.110245
0.028750 0.080750 0.108750
0.102120 0.080302 0.107255
0.175490 0.079853 0.105760
0.248860 0.079405 0.104265
0.322230 0.078956 0.102770
0.395600 0.078508 0.101275
0.468970 0.078059 0.099780
0.542340 0.077611 0.098285
0.615710 0.077162 0.096790
0.689080 0.076714 0.095295
0.762450 0.076265 0.093800
0.835820 0.075817 0.092305
0.909190 0.075368 0.090810
0.979435 0.074920 0.089315
0.980930 0.074471 0.087820
0.000000 0.152641 0.108805
0.000000 0.152193 0.107310
0.031685 0.151745 0.105815
0.105055 0.151296 0.104320
0.178425 0.150847 0.102825
0.251795 0.150399 0.101330
0.325165 0.149950 0.099835
0.398535 0.149502 0.098340
0.471905 0.149054 0.096845
0.545275 0.148605 0.095350
0.618645 0.148156 0.093855
0.692015 0.147708 0.092360
0.765385 0.147259 0.090865
0.838755 0.146811 0.089370
0.912125 0.146363 0.087875
0.982370 0.145914 0.086380
0.983865 0.145465 0.084885
0.000000 0.223636 0.105870
0.000000 0.223188 0.104375
0.034620 0.222739 0.102880
0.107990 0.222291 0.101385
0.181360 0.221842 0.099890
0.254730 0.221394 0.098395
0.328100 0.220945 0.096900
0.401470 0.220497 0.095405
0.474840 0.220048 0.093910
0.548210 0.219600 0.092415
0.621580 0.219151 0.090920
0.694950 0.218703 0.089425
0.768320 0.218254 0.087930
0.841690 0.217806 0.086435
0.915060 0.217357 0.084940
0.985305 0.216909 0.083445
0.987891 0.216915 0.080859
0.000000 0.294631 0.102935
0.000000 0.294182 0.101440
0.037555 0.293734 0.099945
0.110925 0.293285 0.098450
0.184295 0.292837 0.096955
0.257665 0.292388 0.095460
0.331035 0.291940 0.093965
0.404405 0.291491 0.092470
0.477775 0.291043 0.090975
0.551145 0.290594 0.089480
0.624515 0.290146 0.087985
0.697885 0.289697 0.086490
0.771255 0.289249 0.084995
0.844625 0.288800 0.083500
0.919011 0.288775 0.080989
0.991295 0.289176 0.077455
0.994828 0.289577 0.073922
0.000000 0.365625 0.100000
0.000000 0.365177 0.098505
0.040490 0.364728 0.097010
0.113860 0.364280 0.095515
0.187230 0.363831 0.094020
0.260600 0.363382 0.092525
0.333970 0.362934 0.091030
0.407340 0.362486 0.089535
0.480710 0.362037 0.088040
0.554080 0.361589 0.086545
0.627450 0.361140 0.085050
0.700820 0.360691 0.083555
0.775131 0.360635 0.081119
0.850540 0.361036 0.077585
0.925948 0.361437 0.074052
0.998232 0.361838 0.070518
1.000000 0.362239 0.066985
0.000000 0.436619 0.097065
0.000000 0.436171 0.095570
0.043425 0.435722 0.094075
0.116795 0.435274 0.092580
0.190165 0.434825 0.091085
0.263535 0.434377 0.089590
0.336905 0.433928 0.088095
0.410275 0.433480 0.086600
0.483645 0.433031 0.085105
0.557015 0.432583 0.083610
0.631251 0.432495 0.081249
0.706660 0.432896 0.077715
0.782068 0.433297 0.074182
0.857477 0.433698 0.070648
0.932885 0.434099 0.067115
1.000000 0.434500 0.063581
1.000000 0.434901 0.060047
0.000000 0.507614 0.094130
0.000000 0.507166 0.092635
0.046360 0.506717 0.091140
0.119730 0.506269 0.089645
0.193100 0.505820 0.088150
0.266470 0.505371 0.086655
0.339840 0.504923 0.085160
0.413210 0.504475 0.083665
0.487371 0.504356 0.081379
0.562780 0.504756 0.077845
0.638188 0.505157 0.074312
0.713597 0.505558 0.070778
0.789005 0.505959 0.067245
0.864414 0.506360 0.063711
0.939823 0.506761 0.060177
1.000000 0.507162 0.056644
1.000000 0.507563 0.053110
0.000000 0.578608 0.091195
0.000000 0.578160 0.089700
0.049295 0.577712 0.088205
0.122665 0.577263 0.086710
0.196035 0.576815 0.085215
0.269405 0.576366 0.083720
0.343491 0.576216 0.081509
0.418900 0.576617 0.077975
0.494308 0.577018 0.074442
0.569717 0.577419 0.070908
0.645125 0.577820 0.067375
0.720534 0.578220 0.063841
0.795943 0.578621 0.060307
0.871351 0.579022 0.056774
0.946760 0.579423 0.053240
1.000000 0.579824 0.049706
1.000000 0.580668 0.047648
0.000000 0.649603 0.088260
0.000000 0.649155 0.086765
0.052230 0.648706 0.085270
0.125600 0.648258 0.083775
0.199611 0.648076 0.081639
0.275020 0.648477 0.078105
0.350428 0.648878 0.074572
0.425837 0.649279 0.071038
0.501245 0.649680 0.067505
0.576654 0.650081 0.063971
0.652063 0.650482 0.060437
0.727471 0.650883 0.056904
0.802880 0.651284 0.053370
0.878289 0.651684 0.049836
0.952277 0.652511 0.047723
1.000000 0.653361 0.045684
1.000000 0.654210 0.043645
0.000000 0.720598 0.085325
0.000000 0.720149 0.083830
0.055731 0.719936 0.081769
0.131140 0.720337 0.078235
0.206548 0.720738 0.074702
0.281957 0.721139 0.071168
0.357365 0.721540 0.067635
0.432774 0.721941 0.064101
0.508183 0.722342 0.060567
0.583591 0.722743 0.057034
0.659000 0.723144 0.053500
0.734409 0.723545 0.049966
0.808452 0.724355 0.047798
0.882366 0.725205 0.045759
0.956280 0.726054 0.043720
1.000000 0.726903 0.041682
1.000000 0.727753 0.039643
0.000000 0.791797 0.081899
0.000000 0.792197 0.078365
0.062668 0.792598 0.074832
0.138077 0.792999 0.071298
0.213485 0.793400 0.067765
0.288894 0.793801 0.064231
0.364303 0.794202 0.060697
0.439711 0.794603 0.057164
0.515120 0.795004 0.053630
0.590529 0.795405 0.050096
0.664627 0.796199 0.047873
0.738541 0.797048 0.045834
0.812455 0.797898 0.043795
0.886368 0.798747 0.041757
0.960282 0.799597 0.039718
1.000000 0.800446 0.037680
1.000000 0.801295 0.035641
0.000000 0.864459 0.074962
0.000000 0.864860 0.071428
0.069605 0.865261 0.067895
0.145014 0.865661 0.064361
0.220423 0.866062 0.060827
0.295831 0.866463 0.057294
0.371240 0.866864 0.053760
0.446649 0.867265 0.050226
0.520802 0.868043 0.047948
0.594716 0.868892 0.045909
0.668630 0.869741 0.043870
0.742543 0.870591 0.041832
0.816457 0.871440 0.039793
0.890370 0.872290 0.037755
0.964284 0.873139 0.035716
1.000000 0.873989 0.033677
1.000000 0.874838 0.031639
0.000725 0.937121 0.068025
0.004259 0.937522 0.064491
0.076543 0.937923 0.060957
0.151951 0.938324 0.057424
0.227360 0.938724 0.053890
0.302769 0.939125 0.050356
0.376977 0.939886 0.048023
0.450891 0.940736 0.045984
0.524805 0.941585 0.043945
0.598718 0.942435 0.041907
0.672632 0.943284 0.039868
0.746545 0.944134 0.037830
0.820459 0.944983 0.035791
0.894373 0.945832 0.033752
0.968286 0.946682 0.031714
1.000000 0.947531 0.029675
1.000000 0.948381 0.027636
0.007663 1.000000 0.061087
0.011196 1.000000 0.057554
0.083480 1.000000 0.054020
0.158889 1.000000 0.050486
0.233152 1.000000 0.048098
0.307066 1.000000 0.046059
0.380980 1.000000 0.044020
0.454893 1.000000 0.041982
0.528807 1.000000 0.039943
0.602720 1.000000 0.037905
0.676634 1.000000 0.035866
0.750548 1.000000 0.033827
0.824461 1.000000 0.031789
0.898375 1.000000 0.029750
0.972289 1.000000 0.027711
1.000000 1.000000 0.025673
1.000000 1.000000 0.023634
0.014600 1.000000 0.054150
0.018134 1.000000 0.050616
0.089327 1.000000 0.048173
0.163241 1.000000 0.046134
0.237155 1.000000 0.044095
0.311068 1.000000 0.042057
0.384982 1.000000 0.040018
0.458895 1.000000 0.037980
0.532809 1.000000 0.035941
0.606723 1.000000 0.033902
0.680636 1.000000 0.031864
0.754550 1.000000 0.029825
0.828464 1.000000 0.027786
0.902377 1.000000 0.025748
0.976291 1.000000 0.023709
1.000000 1.000000 0.021670
1.000000 1.000000 0.019632
0.000000 0.014487 0.188915
0.000000 0.014038 0.187420
0.023450 0.013590 0.185925
0.096820 0.013141 0.184430
0.170190 0.012693 0.182935
0.243560 0.012245 0.181440
0.316930 0.011796 0.179945
0.390300 0.011347 0.178450
0.463670 0.010899 0.176955
0.537040 0.010450 0.175460
0.610410 0.010002 0.173965
0.683780 0.009553 0.172470
0.757150 0.009105 0.170975
0.830520 0.008656 0.169480
0.903890 0.008208 0.167985
0.974135 0.007760 0.166490
0.975630 0.007311 0.164995
0.000000 0.013607 0.185980
